;FLAVOR:Marlin
;TIME:3591
;Filament used: 3.43365m
;Layer height: 0.35
;MINX:31.386
;MINY:39.8
;MINZ:0.2
;MAXX:203.585
;MAXY:195.2
;MAXZ:1.95
;TARGET_MACHINE.NAME:Creality Ender-3
;Generated with Cura_SteamEngine 5.9.0
M140 S75
M105
M190 S75
M104 S240
M105
M109 S240
M82 ;absolute extrusion mode
; Ender 3 Custom Start G-code
G92 E0 ; Reset Extruder
G28 ; Home all axes
G1 Z2.0 F3000 ; Move Z Axis up little to prevent scratching of Heat Bed
G1 X0.1 Y20 Z0.3 F5000.0 ; Move to start position
G1 X0.1 Y200.0 Z0.3 F1500.0 E15 ; Draw the first line
G1 X0.4 Y200.0 Z0.3 F5000.0 ; Move to side a little
G1 X0.4 Y20 Z0.3 F1500.0 E30 ; Draw the second line
G92 E0 ; Reset Extruder
G1 Z2.0 F3000 ; Move Z Axis up little to prevent scratching of Heat Bed
G1 X5 Y20 Z0.3 F5000.0 ; Move over to prevent blob squish
G92 E0
G92 E0
G1 F2700 E-5
;LAYER_COUNT:6
;LAYER:0
M107
G0 F6000 X32.66 Y111.686 Z0.2
;TYPE:SKIRT
G1 F2700 E0
G1 F900 X32.875 Y108.997 E0.11215
G1 X33.516 Y104.433 E0.30376
G1 X34.42 Y99.911 E0.49549
G1 X35.538 Y95.654 E0.67847
G1 X37.039 Y91.073 E0.87889
G1 X38.731 Y86.792 E1.07027
G1 X40.584 Y82.799 E1.25329
G1 X42.874 Y78.554 E1.45382
G1 X45.299 Y74.633 E1.64549
G1 X47.85 Y71.006 E1.82985
G1 X50.813 Y67.286 E2.02757
G1 X53.912 Y63.835 E2.22041
G1 X57.085 Y60.697 E2.40594
G1 X60.663 Y57.56 E2.60377
G1 X64.138 Y54.855 E2.78686
G1 X66.354 Y53.33 E2.8987
G1 X66.443 Y52.998 E2.91299
G1 X66.975 Y52.009 E2.95968
G1 X67.704 Y51.177 E3.00567
G1 X68.399 Y50.688 E3.041
G1 X73.42 Y47.821 E3.28138
G1 X74.062 Y47.562 E3.31016
G1 X75.153 Y47.388 E3.35609
G1 X76.153 Y47.458 E3.39777
G1 X76.411 Y47.519 E3.40879
G1 X78.718 Y46.422 E3.515
G1 X83.13 Y44.632 E3.71295
G1 X87.298 Y43.222 E3.89588
G1 X91.943 Y41.956 E4.09604
G1 X96.44 Y41.009 E4.2871
G1 X100.81 Y40.356 E4.47081
G1 X105.612 Y39.93 E4.67123
G1 X110.217 Y39.8 E4.86276
G1 X114.617 Y39.931 E5.04578
G1 X119.415 Y40.358 E5.24604
G1 X123.77 Y41.009 E5.42911
G1 X128.47 Y42.004 E5.62885
G1 X132.926 Y43.226 E5.82095
G1 X137.094 Y44.638 E6.0039
G1 X141.533 Y46.445 E6.20316
G1 X143.805 Y47.526 E6.30777
G1 X144.044 Y47.47 E6.31797
G1 X145.053 Y47.388 E6.36006
G1 X146.187 Y47.567 E6.40779
G1 X147.058 Y47.949 E6.44733
G1 X151.833 Y50.701 E6.67646
G1 X151.981 Y50.802 E6.68391
G1 X158.897 Y54.833 E7.01672
G1 X159.563 Y54.73 E7.04474
G1 X160.666 Y54.847 E7.09086
G1 X161.6 Y55.252 E7.13318
G1 X173.762 Y62.348 E7.71859
G1 X174.574 Y63.095 E7.76446
G1 X175.058 Y64.003 E7.80724
G1 X175.159 Y64.322 E7.82115
G1 X175.458 Y64.495 E7.83551
G1 X177.162 Y65.371 E7.91517
G1 X178.756 Y65.989 E7.98625
G1 X180.463 Y66.451 E8.05977
G1 X182.243 Y66.738 E8.13473
G1 X184.022 Y66.83 E8.20879
G1 X196.276 Y66.86 E8.71825
G1 X197.825 Y67.067 E8.78323
G1 X199.695 Y67.844 E8.86742
G1 X201.35 Y69.107 E8.95397
G1 X202.6 Y70.741 E9.0395
G1 X203.38 Y72.624 E9.12424
G1 X203.585 Y74.164 E9.18883
G1 X203.585 Y81.271 E9.4843
G1 X203.38 Y82.816 E9.5491
G1 X202.6 Y84.699 E9.63384
G1 X201.35 Y86.333 E9.71937
G1 X199.695 Y87.596 E9.80592
G1 X197.825 Y88.373 E9.89011
G1 X196.276 Y88.58 E9.95509
G1 X185.672 Y88.615 E10.39595
G1 X185.666 Y99.448 E10.84634
G1 X186.378 Y102.682 E10.98401
G1 X186.978 Y106.196 E11.13222
G1 X187.45 Y110.068 E11.29439
G1 X187.568 Y111.693 E11.36213
G1 X187.781 Y111.912 E11.37483
G1 X188.39 Y112.897 E11.42298
G1 X188.746 Y113.956 E11.46943
G1 X188.813 Y114.658 E11.49874
G1 X188.824 Y120.444 E11.7393
G1 X188.742 Y121.124 E11.76777
G1 X188.303 Y122.283 E11.8193
G1 X187.734 Y123.119 E11.86134
G1 X187.569 Y123.296 E11.8714
G1 X187.449 Y124.94 E11.93994
G1 X186.976 Y128.817 E12.10232
G1 X186.356 Y132.429 E12.25468
G1 X185.666 Y135.563 E12.3881
G1 X185.67 Y146.385 E12.83803
G1 X196.276 Y146.42 E13.27898
G1 X197.825 Y146.627 E13.34395
G1 X199.695 Y147.404 E13.42814
G1 X201.35 Y148.667 E13.51469
G1 X202.6 Y150.301 E13.60022
G1 X203.38 Y152.184 E13.68496
G1 X203.585 Y153.724 E13.74955
G1 X203.585 Y160.831 E14.04503
G1 X203.38 Y162.376 E14.10982
G1 X202.6 Y164.259 E14.19456
G1 X201.35 Y165.893 E14.28009
G1 X199.695 Y167.156 E14.36665
G1 X197.825 Y167.933 E14.45084
G1 X196.276 Y168.14 E14.51581
G1 X184.022 Y168.17 E15.02527
G1 X182.243 Y168.262 E15.09933
G1 X180.463 Y168.549 E15.17429
G1 X178.756 Y169.011 E15.24782
G1 X177.158 Y169.631 E15.31908
G1 X175.465 Y170.501 E15.39821
G1 X151.958 Y184.214 E16.52966
G1 X151.748 Y184.353 E16.54013
G1 X146.79 Y187.179 E16.77739
G1 X146.148 Y187.438 E16.80617
G1 X145.057 Y187.612 E16.8521
G1 X144.057 Y187.542 E16.89378
G1 X143.799 Y187.481 E16.9048
G1 X141.492 Y188.578 E17.01101
G1 X137.08 Y190.368 E17.20896
G1 X132.912 Y191.778 E17.39189
G1 X128.267 Y193.044 E17.59205
G1 X123.77 Y193.991 E17.78312
G1 X119.4 Y194.644 E17.96682
G1 X114.598 Y195.07 E18.16725
G1 X109.993 Y195.2 E18.35878
G1 X105.593 Y195.069 E18.54179
G1 X100.795 Y194.642 E18.74205
G1 X96.44 Y193.991 E18.92513
G1 X91.74 Y192.996 E19.12486
G1 X87.284 Y191.774 E19.31696
G1 X83.116 Y190.362 E19.49992
G1 X78.677 Y188.555 E19.69918
G1 X76.405 Y187.474 E19.80378
G1 X76.166 Y187.53 E19.81399
G1 X75.154 Y187.612 E19.8562
G1 X74.016 Y187.432 E19.9041
G1 X72.947 Y186.948 E19.95289
G1 X68.395 Y184.308 E20.17166
G1 X67.568 Y183.699 E20.21436
G1 X66.86 Y182.816 E20.26141
G1 X66.426 Y181.922 E20.30273
G1 X66.349 Y181.666 E20.31385
G1 X64.222 Y180.204 E20.42115
G1 X60.491 Y177.298 E20.61777
G1 X57.184 Y174.393 E20.80077
G1 X53.762 Y171.002 E21.00106
G1 X50.822 Y167.725 E21.1841
G1 X47.823 Y163.951 E21.38451
G1 X45.173 Y160.179 E21.57616
G1 X42.846 Y156.408 E21.76039
G1 X40.577 Y152.187 E21.95963
G1 X38.725 Y148.195 E22.14259
G1 X36.964 Y143.713 E22.34279
G1 X35.534 Y139.331 E22.53443
G1 X34.418 Y135.075 E22.71736
G1 X33.478 Y130.349 E22.91769
G1 X32.874 Y125.989 E23.10069
G1 X32.66 Y123.323 E23.21189
G1 X32.429 Y123.087 E23.22562
G1 X31.82 Y122.103 E23.27373
G1 X31.464 Y121.044 E23.32018
G1 X31.397 Y120.342 E23.34949
G1 X31.386 Y114.556 E23.59005
G1 X31.468 Y113.876 E23.61852
G1 X31.907 Y112.717 E23.67005
G1 X32.476 Y111.881 E23.71209
G1 X32.66 Y111.686 E23.72324
G0 F6000 X33.143 Y111.912
G1 F900 X33.37 Y109.066 E23.84194
G1 X34.006 Y104.531 E24.03233
G1 X34.904 Y100.038 E24.22282
G1 X36.022 Y95.781 E24.40581
G1 X37.504 Y91.257 E24.60373
G1 X39.185 Y87.002 E24.79394
G1 X41.038 Y83.009 E24.97695
G1 X43.299 Y78.817 E25.17497
G1 X45.708 Y74.921 E25.36541
G1 X48.241 Y71.318 E25.54852
G1 X51.204 Y67.598 E25.74624
G1 X54.264 Y64.191 E25.93663
G1 X57.437 Y61.053 E26.12216
G1 X60.97 Y57.955 E26.31752
G1 X64.445 Y55.25 E26.50061
G1 X66.79 Y53.637 E26.61894
G1 X66.911 Y53.183 E26.63847
G1 X67.389 Y52.295 E26.6804
G1 X68.039 Y51.553 E26.72141
G1 X68.687 Y51.097 E26.75435
G1 X73.607 Y48.285 E26.98996
G1 X74.197 Y48.047 E27.01641
G1 X75.175 Y47.891 E27.05758
G1 X76.118 Y47.957 E27.09688
G1 X76.459 Y48.05 E27.11158
G1 X78.933 Y46.874 E27.22546
G1 X83.29 Y45.106 E27.42095
G1 X87.458 Y43.696 E27.60388
G1 X92.046 Y42.445 E27.80159
G1 X96.514 Y41.504 E27.99143
G1 X100.884 Y40.851 E28.17513
G1 X105.626 Y40.43 E28.37305
G1 X110.202 Y40.3 E28.56338
G1 X114.602 Y40.431 E28.74639
G1 X119.341 Y40.853 E28.94419
G1 X123.696 Y41.504 E29.12727
G1 X128.338 Y42.486 E29.32453
G1 X132.766 Y43.7 E29.51542
G1 X136.934 Y45.112 E29.69838
G1 X141.318 Y46.896 E29.89515
G1 X143.76 Y48.058 E30.00759
G1 X144.084 Y47.968 E30.02157
G1 X145.032 Y47.891 E30.06111
G1 X146.045 Y48.051 E30.10375
G1 X146.857 Y48.407 E30.14061
G1 X151.583 Y51.134 E30.36746
G1 X151.719 Y51.228 E30.37433
G1 X158.828 Y55.372 E30.71644
G1 X159.039 Y55.313 E30.72555
G1 X159.577 Y55.234 E30.74816
G1 X160.538 Y55.336 E30.78833
G1 X161.348 Y55.684 E30.82499
G1 X173.462 Y62.752 E31.40809
G1 X174.174 Y63.407 E31.44831
G1 X174.594 Y64.194 E31.4854
G1 X174.741 Y64.658 E31.50563
G1 X175.21 Y64.93 E31.52817
G1 X176.956 Y65.827 E31.60978
G1 X178.602 Y66.466 E31.68319
G1 X180.36 Y66.941 E31.7589
G1 X182.183 Y67.235 E31.83567
G1 X184.015 Y67.33 E31.91194
G1 X196.21 Y67.356 E32.41895
G1 X197.694 Y67.554 E32.48119
G1 X199.446 Y68.282 E32.56007
G1 X200.992 Y69.462 E32.64093
G1 X202.163 Y70.993 E32.72107
G1 X202.892 Y72.753 E32.80027
G1 X203.089 Y74.23 E32.86222
G1 X203.089 Y81.205 E33.1522
G1 X202.892 Y82.687 E33.21436
G1 X202.163 Y84.447 E33.29356
G1 X200.992 Y85.978 E33.3737
G1 X199.446 Y87.158 E33.45455
G1 X197.694 Y87.886 E33.53343
G1 X196.21 Y88.084 E33.59568
G1 X185.172 Y88.116 E34.05458
G1 X185.166 Y99.5 E34.52788
G1 X185.885 Y102.766 E34.66691
G1 X186.485 Y106.28 E34.81512
G1 X186.951 Y110.104 E34.97528
G1 X187.084 Y111.929 E35.05136
G1 X187.356 Y112.175 E35.0666
G1 X187.934 Y113.11 E35.11231
G1 X188.253 Y114.059 E35.15393
G1 X188.315 Y114.706 E35.18095
G1 X188.324 Y120.445 E35.41955
G1 X188.253 Y121.006 E35.44306
G1 X187.857 Y122.05 E35.48948
G1 X187.321 Y122.838 E35.52911
G1 X187.084 Y123.073 E35.54298
G1 X186.95 Y124.903 E35.61927
G1 X186.483 Y128.732 E35.77964
G1 X185.863 Y132.344 E35.932
G1 X185.166 Y135.51 E36.06678
G1 X185.17 Y146.884 E36.53966
G1 X196.21 Y146.916 E36.99865
G1 X197.694 Y147.114 E37.0609
G1 X199.446 Y147.842 E37.13977
G1 X200.992 Y149.022 E37.22063
G1 X202.163 Y150.553 E37.30077
G1 X202.892 Y152.313 E37.37997
G1 X203.089 Y153.79 E37.44192
G1 X203.089 Y160.765 E37.73191
G1 X202.892 Y162.247 E37.79406
G1 X202.163 Y164.007 E37.87326
G1 X200.992 Y165.538 E37.9534
G1 X199.446 Y166.718 E38.03426
G1 X197.694 Y167.446 E38.11313
G1 X196.21 Y167.644 E38.17538
G1 X184.015 Y167.67 E38.68239
G1 X182.183 Y167.765 E38.75866
G1 X180.36 Y168.059 E38.83543
G1 X178.602 Y168.534 E38.91114
G1 X176.948 Y169.176 E38.9849
G1 X175.23 Y170.059 E39.06521
G1 X151.698 Y183.787 E40.19787
G1 X151.5 Y183.919 E40.20776
G1 X146.603 Y186.715 E40.4422
G1 X146.013 Y186.953 E40.46865
G1 X145.035 Y187.109 E40.50983
G1 X144.092 Y187.043 E40.54913
G1 X143.751 Y186.95 E40.56382
G1 X141.277 Y188.126 E40.67771
G1 X136.92 Y189.894 E40.8732
G1 X132.752 Y191.304 E41.05613
G1 X128.164 Y192.555 E41.25384
G1 X123.696 Y193.496 E41.44367
G1 X119.326 Y194.149 E41.62737
G1 X114.584 Y194.57 E41.8253
G1 X110.008 Y194.7 E42.01562
G1 X105.608 Y194.569 E42.19863
G1 X100.869 Y194.147 E42.39644
G1 X96.514 Y193.496 E42.57951
G1 X91.872 Y192.514 E42.77677
G1 X87.444 Y191.3 E42.96766
G1 X83.276 Y189.888 E43.15062
G1 X78.892 Y188.104 E43.3474
G1 X76.45 Y186.942 E43.45983
G1 X76.126 Y187.032 E43.47382
G1 X75.175 Y187.109 E43.51348
G1 X74.16 Y186.948 E43.55621
G1 X73.198 Y186.515 E43.60007
G1 X68.646 Y183.875 E43.81884
G1 X67.916 Y183.334 E43.85662
G1 X67.285 Y182.547 E43.89856
G1 X66.876 Y181.704 E43.93751
G1 X66.786 Y181.36 E43.9523
G1 X64.529 Y179.809 E44.06615
G1 X60.821 Y176.922 E44.26153
G1 X57.514 Y174.017 E44.44453
G1 X54.134 Y170.668 E44.64235
G1 X51.194 Y167.391 E44.82539
G1 X48.232 Y163.664 E45.02332
G1 X45.599 Y159.916 E45.21375
G1 X43.272 Y156.145 E45.39797
G1 X41.031 Y151.977 E45.59472
G1 X39.179 Y147.985 E45.77768
G1 X37.439 Y143.558 E45.97544
G1 X36.018 Y139.204 E46.16585
G1 X34.902 Y134.948 E46.34878
G1 X33.973 Y130.28 E46.54666
G1 X33.369 Y125.92 E46.72966
G1 X33.142 Y123.085 E46.8479
G1 X32.854 Y122.824 E46.86406
G1 X32.276 Y121.89 E46.90972
G1 X31.957 Y120.941 E46.95135
G1 X31.895 Y120.294 E46.97837
G1 X31.886 Y114.555 E47.21697
G1 X31.957 Y113.994 E47.24048
G1 X32.353 Y112.95 E47.2869
G1 X32.889 Y112.162 E47.32652
G1 X33.143 Y111.912 E47.34134
G0 F6000 X33.625 Y112.15
G1 F900 X33.865 Y109.135 E47.46709
G1 X34.496 Y104.629 E47.65625
G1 X35.388 Y100.165 E47.84551
G1 X36.506 Y95.908 E48.0285
G1 X37.969 Y91.441 E48.22392
G1 X39.639 Y87.212 E48.41296
G1 X41.492 Y83.219 E48.59597
G1 X43.724 Y79.08 E48.79148
G1 X46.117 Y75.209 E48.98068
G1 X48.65 Y71.606 E49.16379
G1 X51.576 Y67.932 E49.35906
G1 X54.616 Y64.547 E49.54821
G1 X57.789 Y61.409 E49.73375
G1 X61.277 Y58.35 E49.92663
G1 X64.752 Y55.645 E50.10972
G1 X67.225 Y53.944 E50.2345
G1 X67.38 Y53.367 E50.25934
G1 X67.803 Y52.581 E50.29645
G1 X68.374 Y51.929 E50.33249
G1 X68.975 Y51.506 E50.36304
G1 X73.794 Y48.749 E50.59386
G1 X74.332 Y48.532 E50.61798
G1 X75.197 Y48.394 E50.6544
G1 X76.083 Y48.456 E50.69132
G1 X76.496 Y48.587 E50.70934
G1 X79.148 Y47.326 E50.83143
G1 X83.45 Y45.58 E51.02445
G1 X87.618 Y44.17 E51.20738
G1 X92.149 Y42.934 E51.40264
G1 X96.588 Y41.999 E51.59125
G1 X100.958 Y41.346 E51.77495
G1 X105.64 Y40.93 E51.97037
G1 X110.187 Y40.8 E52.15949
G1 X114.587 Y40.931 E52.3425
G1 X119.267 Y41.348 E52.53784
G1 X123.622 Y41.999 E52.72091
G1 X128.206 Y42.968 E52.91571
G1 X132.606 Y44.174 E53.10538
G1 X136.774 Y45.586 E53.28834
G1 X141.129 Y47.359 E53.48383
G1 X143.715 Y48.59 E53.60291
G1 X144.175 Y48.462 E53.62276
G1 X145.011 Y48.394 E53.65763
G1 X145.903 Y48.535 E53.69517
G1 X146.656 Y48.865 E53.72935
G1 X151.333 Y51.567 E53.95392
G1 X151.454 Y51.652 E53.96007
G1 X158.766 Y55.915 E54.31196
G1 X159.111 Y55.808 E54.32697
G1 X159.589 Y55.738 E54.34706
G1 X160.411 Y55.825 E54.38142
G1 X161.096 Y56.116 E54.41237
G1 X173.162 Y63.156 E54.99316
G1 X173.774 Y63.719 E55.02773
G1 X174.131 Y64.388 E55.05925
G1 X174.256 Y64.769 E55.07593
G1 X174.285 Y64.97 E55.08437
G1 X174.981 Y65.375 E55.11785
G1 X176.746 Y66.282 E55.20035
G1 X178.448 Y66.943 E55.27626
G1 X180.256 Y67.431 E55.35412
G1 X182.125 Y67.732 E55.43282
G1 X184.008 Y67.83 E55.51121
G1 X196.144 Y67.852 E56.01577
G1 X197.563 Y68.041 E56.07529
G1 X199.197 Y68.72 E56.14885
G1 X200.634 Y69.817 E56.22402
G1 X201.726 Y71.245 E56.29875
G1 X202.404 Y72.882 E56.37242
G1 X202.593 Y74.296 E56.43173
G1 X202.593 Y81.139 E56.71623
G1 X202.404 Y82.558 E56.77574
G1 X201.726 Y84.195 E56.84941
G1 X200.634 Y85.623 E56.92415
G1 X199.197 Y86.72 E56.99931
G1 X197.563 Y87.399 E57.07288
G1 X196.144 Y87.588 E57.13239
G1 X185.176 Y87.61 E57.58839
G1 X184.893 Y87.648 E57.60026
G1 X184.771 Y87.721 E57.60617
G1 X184.705 Y87.832 E57.61154
G1 X184.666 Y88.121 E57.62366
G1 X184.666 Y99.552 E58.09891
G1 X185.392 Y102.85 E58.23931
G1 X185.992 Y106.364 E58.38752
G1 X186.452 Y110.14 E58.54567
G1 X186.6 Y112.165 E58.63008
G1 X186.968 Y112.498 E58.65071
G1 X187.478 Y113.323 E58.69104
G1 X187.76 Y114.162 E58.72784
G1 X187.817 Y114.754 E58.75256
G1 X187.824 Y120.446 E58.98921
G1 X187.765 Y120.881 E59.00746
G1 X187.41 Y121.817 E59.04908
G1 X186.907 Y122.557 E59.08628
G1 X186.599 Y122.84 E59.10367
G1 X186.451 Y124.867 E59.18817
G1 X185.99 Y128.647 E59.34649
G1 X185.37 Y132.259 E59.49885
G1 X184.666 Y135.456 E59.63495
G1 X184.666 Y146.888 E60.11024
G1 X184.703 Y147.164 E60.12182
G1 X184.771 Y147.279 E60.12737
G1 X184.893 Y147.352 E60.13328
G1 X185.176 Y147.39 E60.14515
G1 X196.144 Y147.412 E60.60115
G1 X197.563 Y147.601 E60.66067
G1 X199.197 Y148.28 E60.73423
G1 X200.634 Y149.377 E60.80939
G1 X201.726 Y150.805 E60.88413
G1 X202.404 Y152.442 E60.9578
G1 X202.593 Y153.856 E61.01711
G1 X202.593 Y160.699 E61.30161
G1 X202.404 Y162.118 E61.36112
G1 X201.726 Y163.755 E61.43479
G1 X200.634 Y165.183 E61.50953
G1 X199.197 Y166.28 E61.58469
G1 X197.563 Y166.959 E61.65826
G1 X196.144 Y167.148 E61.71777
G1 X184.008 Y167.17 E62.22233
G1 X182.125 Y167.268 E62.30072
G1 X180.256 Y167.569 E62.37943
G1 X178.448 Y168.057 E62.45728
G1 X176.738 Y168.721 E62.53355
G1 X174.995 Y169.617 E62.61503
G1 X151.43 Y183.364 E63.74927
G1 X151.222 Y183.503 E63.75967
G1 X146.416 Y186.251 E63.98984
G1 X145.878 Y186.468 E64.01395
G1 X145.013 Y186.606 E64.05037
G1 X144.127 Y186.544 E64.0873
G1 X143.714 Y186.413 E64.10531
G1 X141.062 Y187.674 E64.2274
G1 X136.76 Y189.42 E64.42042
G1 X132.592 Y190.83 E64.60336
G1 X128.061 Y192.066 E64.79862
G1 X123.622 Y193.001 E64.98722
G1 X119.252 Y193.654 E65.17092
G1 X114.57 Y194.07 E65.36634
G1 X110.023 Y194.2 E65.55546
G1 X105.623 Y194.069 E65.73847
G1 X100.943 Y193.652 E65.93381
G1 X96.588 Y193.001 E66.11689
G1 X92.004 Y192.032 E66.31168
G1 X87.604 Y190.826 E66.50136
G1 X83.436 Y189.414 E66.68431
G1 X79.081 Y187.641 E66.8798
G1 X76.495 Y186.41 E66.99888
G1 X76.035 Y186.538 E67.01873
G1 X75.196 Y186.606 E67.05372
G1 X74.302 Y186.464 E67.09136
G1 X73.449 Y186.082 E67.13022
G1 X68.897 Y183.442 E67.34899
G1 X68.265 Y182.97 E67.38179
G1 X67.71 Y182.278 E67.41867
G1 X67.326 Y181.486 E67.45526
G1 X67.232 Y181.06 E67.4734
G1 X64.812 Y179.397 E67.59547
G1 X61.151 Y176.546 E67.78839
G1 X57.844 Y173.641 E67.97139
G1 X54.506 Y170.334 E68.16675
