;FLAVOR:Marlin
;TIME:2966
;Filament used: 2.80289m
;Layer height: 0.35
;MINX:93.605
;MINY:82.13
;MINZ:0.2
;MAXX:141.395
;MAXY:152.87
;MAXZ:12.1
;TARGET_MACHINE.NAME:Creality Ender-3
;Generated with Cura_SteamEngine 5.9.0
M140 S75
M105
M190 S75
M104 S240
M105
M109 S240
M82 ;absolute extrusion mode
; Ender 3 Custom Start G-code
G92 E0 ; Reset Extruder
G28 ; Home all axes
G1 Z2.0 F3000 ; Move Z Axis up little to prevent scratching of Heat Bed
G1 X0.1 Y20 Z0.3 F5000.0 ; Move to start position
G1 X0.1 Y200.0 Z0.3 F1500.0 E15 ; Draw the first line
G1 X0.4 Y200.0 Z0.3 F5000.0 ; Move to side a little
G1 X0.4 Y20 Z0.3 F1500.0 E30 ; Draw the second line
G92 E0 ; Reset Extruder
G1 Z2.0 F3000 ; Move Z Axis up little to prevent scratching of Heat Bed
G1 X5 Y20 Z0.3 F5000.0 ; Move over to prevent blob squish
G92 E0
G92 E0
G1 F2700 E-5
;LAYER_COUNT:35
;LAYER:0
M107
G0 F6000 X138.17 Y152.87 Z0.2
;TYPE:SKIRT
G1 F2700 E0
G1 F900 X97.03 Y152.87 E1.36832
G1 X96.103 Y152.67 E1.39986
G1 X95.816 Y152.561 E1.41007
G1 X95.035 Y152.053 E1.44106
G1 X94.596 Y151.671 E1.46042
G1 X94.008 Y150.839 E1.4943
G1 X93.74 Y150.24 E1.51613
G1 X93.605 Y149.691 E1.53493
G1 X93.605 Y85.555 E3.6681
G1 X93.805 Y84.628 E3.69965
G1 X93.914 Y84.341 E3.70986
G1 X94.422 Y83.56 E3.74085
G1 X94.804 Y83.121 E3.7602
G1 X95.636 Y82.533 E3.79409
G1 X96.235 Y82.265 E3.81591
G1 X96.784 Y82.13 E3.83472
G1 X137.97 Y82.13 E5.20457
G1 X138.897 Y82.33 E5.23611
G1 X139.184 Y82.439 E5.24632
G1 X139.965 Y82.947 E5.27731
G1 X140.404 Y83.329 E5.29666
G1 X140.992 Y84.161 E5.33055
G1 X141.26 Y84.76 E5.35237
G1 X141.395 Y85.309 E5.37118
G1 X141.395 Y149.713 E7.51326
G1 X141.04 Y150.726 E7.54897
G1 X140.581 Y151.491 E7.57864
G1 X139.839 Y152.182 E7.61236
G1 X139.043 Y152.634 E7.64281
G1 X138.17 Y152.87 E7.67289
G0 F6000 X138.851 Y152.168
G1 F900 X138.103 Y152.37 E7.69866
G1 X97.084 Y152.37 E9.06295
G1 X96.208 Y152.181 E9.09276
G1 X96.045 Y152.114 E9.09862
G1 X95.363 Y151.675 E9.1256
G1 X94.968 Y151.332 E9.143
G1 X94.443 Y150.589 E9.17326
G1 X94.216 Y150.081 E9.19176
G1 X94.105 Y149.629 E9.20724
G1 X94.105 Y85.609 E11.33656
G1 X94.294 Y84.733 E11.36636
G1 X94.361 Y84.57 E11.37222
G1 X94.8 Y83.888 E11.3992
G1 X95.143 Y83.493 E11.4166
G1 X95.886 Y82.968 E11.44686
G1 X96.394 Y82.741 E11.46537
G1 X96.846 Y82.63 E11.48085
G1 X137.916 Y82.63 E12.84684
G1 X138.792 Y82.819 E12.87665
G1 X138.955 Y82.886 E12.88251
G1 X139.637 Y83.325 E12.90948
G1 X140.032 Y83.668 E12.92688
G1 X140.557 Y84.411 E12.95714
G1 X140.784 Y84.919 E12.97565
G1 X140.895 Y85.371 E12.99113
G1 X140.895 Y149.628 E15.12833
G1 X140.586 Y150.51 E15.15941
G1 X140.187 Y151.174 E15.18517
G1 X139.541 Y151.776 E15.21454
G1 X138.851 Y152.168 E15.24094
G0 F6000 X138.659 Y151.702
G1 F900 X138.036 Y151.87 E15.2624
G1 X97.138 Y151.87 E16.62267
G1 X96.313 Y151.692 E16.65074
G1 X95.691 Y151.297 E16.67525
G1 X95.338 Y150.991 E16.69079
G1 X94.882 Y150.345 E16.71709
G1 X94.691 Y149.917 E16.73268
G1 X94.605 Y149.567 E16.74466
G1 X94.605 Y85.663 E18.87012
G1 X94.783 Y84.838 E18.89819
G1 X95.178 Y84.216 E18.9227
G1 X95.484 Y83.863 E18.93824
G1 X96.13 Y83.407 E18.96453
G1 X96.558 Y83.216 E18.98012
G1 X96.908 Y83.13 E18.99211
G1 X137.862 Y83.13 E20.35425
G1 X138.687 Y83.308 E20.38232
G1 X139.309 Y83.703 E20.40682
G1 X139.662 Y84.009 E20.42236
G1 X140.118 Y84.655 E20.44866
G1 X140.309 Y85.083 E20.46425
G1 X140.395 Y85.433 E20.47624
G1 X140.395 Y149.543 E22.60855
G1 X140.131 Y150.298 E22.63515
G1 X139.796 Y150.855 E22.65677
G1 X139.243 Y151.37 E22.6819
G1 X138.659 Y151.702 E22.70424
G0 F6000 X138.467 Y151.236
G1 F900 X137.969 Y151.37 E22.7214
G1 X97.192 Y151.37 E24.07764
G1 X96.505 Y151.222 E24.10102
G1 X95.959 Y150.875 E24.12254
G1 X95.71 Y150.652 E24.13365
G1 X95.321 Y150.101 E24.15609
G1 X95.148 Y149.713 E24.17022
G1 X95.105 Y149.509 E24.17715
G1 X95.105 Y85.717 E26.29888
G1 X95.253 Y85.03 E26.32225
G1 X95.6 Y84.484 E26.34377
G1 X95.823 Y84.235 E26.35489
G1 X96.374 Y83.846 E26.37732
G1 X96.762 Y83.673 E26.39145
G1 X96.966 Y83.63 E26.39839
G1 X137.808 Y83.63 E27.7568
G1 X138.495 Y83.778 E27.78017
G1 X139.041 Y84.125 E27.80169
G1 X139.29 Y84.348 E27.8128
G1 X139.679 Y84.899 E27.83524
G1 X139.852 Y85.287 E27.84937
G1 X139.895 Y85.491 E27.8563
G1 X139.895 Y149.458 E29.98385
G1 X139.677 Y150.082 E30.00584
G1 X139.403 Y150.538 E30.02353
G1 X138.945 Y150.964 E30.04434
G1 X138.467 Y151.236 E30.06263
G0 F6000 X138.276 Y150.77
G1 F900 X138.648 Y150.558 E30.07687
G1 X139.01 Y150.222 E30.0933
G1 X139.222 Y149.868 E30.10702
G1 X139.395 Y149.373 E30.12446
G1 X139.395 Y85.491 E32.24918
G1 X139.241 Y85.146 E32.26175
G1 X138.913 Y84.681 E32.28068
G1 X138.773 Y84.547 E32.28712
G1 X138.303 Y84.248 E32.30565
G1 X137.754 Y84.13 E32.32433
G1 X96.966 Y84.13 E33.68094
G1 X96.621 Y84.284 E33.69351
G1 X96.156 Y84.612 E33.71243
G1 X96.022 Y84.752 E33.71888
G1 X95.723 Y85.222 E33.73741
G1 X95.605 Y85.771 E33.75608
G1 X95.605 Y149.509 E35.87602
G1 X95.759 Y149.854 E35.88858
G1 X96.087 Y150.319 E35.90751
G1 X96.227 Y150.453 E35.91396
G1 X96.697 Y150.752 E35.93248
G1 X97.246 Y150.87 E35.95116
G1 X137.903 Y150.87 E37.30342
G1 X138.276 Y150.77 E37.31626
G0 F6000 X138.085 Y150.304
G1 F900 X137.837 Y150.37 E37.3248
G1 X97.301 Y150.37 E38.67303
G1 X96.889 Y150.281 E38.68705
G1 X96.495 Y150.031 E38.70257
G1 X96.197 Y149.609 E38.71975
G1 X96.105 Y149.402 E38.72729
G1 X96.105 Y85.826 E40.84183
G1 X96.194 Y85.414 E40.85585
G1 X96.444 Y85.02 E40.87137
G1 X96.866 Y84.722 E40.88855
G1 X97.073 Y84.63 E40.89609
G1 X137.699 Y84.63 E42.24731
G1 X138.111 Y84.719 E42.26133
G1 X138.505 Y84.969 E42.27685
G1 X138.803 Y85.391 E42.29404
G1 X138.895 Y85.598 E42.30157
G1 X138.895 Y149.288 E44.41991
G1 X138.75 Y149.703 E44.43453
G1 X138.618 Y149.904 E44.44253
G1 X138.351 Y150.152 E44.45465
G1 X138.085 Y150.304 E44.46484
G0 F6000 X137.856 Y149.254
G1 F900 X137.724 Y149.37 E44.47068
G1 X97.355 Y149.37 E45.81336
G1 X97.221 Y149.331 E45.818
G1 X97.105 Y149.199 E45.82385
G1 X97.105 Y85.88 E47.92985
G1 X97.144 Y85.746 E47.93449
G1 X97.276 Y85.63 E47.94033
G1 X137.645 Y85.63 E49.28301
G1 X137.779 Y85.669 E49.28765
G1 X137.895 Y85.801 E49.2935
G1 X137.895 Y149.12 E51.3995
G1 X137.856 Y149.254 E51.40414
G0 F6000 X138.054 Y149.746
G1 F900 X137.837 Y149.87 E51.41245
G1 X97.355 Y149.87 E52.75889
G1 X97.081 Y149.811 E52.76821
G1 X96.845 Y149.661 E52.77751
G1 X96.605 Y149.321 E52.79135
G1 X96.605 Y85.88 E54.90141
G1 X96.664 Y85.606 E54.91073
G1 X96.814 Y85.37 E54.92003
G1 X97.154 Y85.13 E54.93387
G1 X137.645 Y85.13 E56.28061
G1 X137.919 Y85.189 E56.28993
G1 X138.155 Y85.339 E56.29923
G1 X138.395 Y85.679 E56.31307
G1 X138.395 Y149.203 E58.42589
G1 X138.278 Y149.538 E58.43769
G1 X138.054 Y149.746 E58.44786
G1 F2700 E53.44786
;MESH:Body24.stl
G0 F6000 X137.121 Y148.596
G0 X117.5 Y147.37
;TYPE:WALL-INNER
G1 F2700 E58.44786
G1 F900 X135.894 Y147.37 E59.05965
G1 X135.894 Y87.63 E61.04661
G1 X99.102 Y87.63 E62.27031
G1 X99.102 Y147.37 E64.25727
G1 X117.5 Y147.37 E64.86919
G0 F6000 X117.5 Y147.87
G1 F900 X136.394 Y147.87 E65.49761
G1 X136.394 Y87.13 E67.51783
G1 X98.602 Y87.13 E68.7748
G1 X98.602 Y147.87 E70.79502
G1 X117.5 Y147.87 E71.42357
G0 F6000 X117.5 Y148.37
G1 F900 X136.894 Y148.37 E72.06862
G1 X136.894 Y86.63 E74.1221
G1 X98.102 Y86.63 E75.41232
G1 X98.102 Y148.37 E77.46581
G1 X117.5 Y148.37 E78.11099
G0 F6000 X117.5 Y148.87
;TYPE:WALL-OUTER
G1 F900 X137.394 Y148.87 E78.77266
G1 X137.394 Y86.13 E80.8594
G1 X97.602 Y86.13 E82.18289
G1 X97.602 Y148.87 E84.26963
G1 X117.5 Y148.87 E84.93144
G0 F6000 X117.5 Y148.01
G0 X117.5 Y147.22
G0 X117.5 Y146.918
;TYPE:SKIN
G1 F900 X99.55 Y146.918 E85.52846
G1 X99.55 Y88.078 E87.48549
G1 X135.442 Y88.078 E88.67926
G1 X135.442 Y146.918 E90.63629
G1 X117.5 Y146.918 E91.23304
G0 F6000 X117.5 Y147.22
G0 X99.999 Y147.22
G0 X99.999 Y146.668
G1 F900 X99.8 Y146.469 E91.2424
G0 F6000 X99.8 Y145.762
G1 F900 X100.706 Y146.668 E91.28502
G0 F6000 X101.413 Y146.668
G1 F900 X99.8 Y145.054 E91.36091
G0 F6000 X99.8 Y144.347
G1 F900 X102.12 Y146.668 E91.47006
G0 F6000 X102.827 Y146.668
G1 F900 X99.8 Y143.64 E91.61246
G0 F6000 X99.8 Y142.933
G1 F900 X103.535 Y146.668 E91.78815
G0 F6000 X104.242 Y146.668
G1 F900 X99.8 Y142.226 E91.99708
G0 F6000 X99.8 Y141.519
G1 F900 X104.949 Y146.668 E92.23928
G0 F6000 X105.656 Y146.668
G1 F900 X99.8 Y140.812 E92.51473
G0 F6000 X99.8 Y140.105
G1 F900 X106.363 Y146.668 E92.82343
G0 F6000 X107.07 Y146.668
G1 F900 X99.8 Y139.398 E93.16539
G0 F6000 X99.8 Y138.691
G1 F900 X107.777 Y146.668 E93.5406
G0 F6000 X108.484 Y146.668
G1 F900 X99.8 Y137.983 E93.94909
G0 F6000 X99.8 Y137.276
G1 F900 X109.191 Y146.668 E94.39084
G0 F6000 X109.899 Y146.668
G1 F900 X99.8 Y136.569 E94.86587
G0 F6000 X99.8 Y135.862
G1 F900 X110.606 Y146.668 E95.37415
G0 F6000 X111.313 Y146.668
G1 F900 X99.8 Y135.155 E95.91568
G0 F6000 X99.8 Y134.448
G1 F900 X112.02 Y146.668 E96.49048
G0 F6000 X112.727 Y146.668
G1 F900 X99.8 Y133.741 E97.09852
G0 F6000 X99.8 Y133.034
G1 F900 X113.434 Y146.668 E97.73982
G0 F6000 X114.141 Y146.668
G1 F900 X99.8 Y132.327 E98.41438
G0 F6000 X99.8 Y131.619
G1 F900 X114.848 Y146.668 E99.12222
G0 F6000 X115.555 Y146.668
G1 F900 X99.8 Y130.912 E99.86331
G0 F6000 X99.8 Y130.205
G1 F900 X116.262 Y146.668 E100.63765
G0 F6000 X116.97 Y146.668
G1 F900 X99.8 Y129.498 E101.44528
G0 F6000 X99.8 Y128.791
G1 F900 X117.677 Y146.668 E102.28615
G0 F6000 X118.384 Y146.668
G1 F900 X99.8 Y128.084 E103.16029
G0 F6000 X99.8 Y127.377
G1 F900 X119.091 Y146.668 E104.06768
G0 F6000 X119.798 Y146.668
G1 F900 X99.8 Y126.67 E105.00832
G0 F6000 X99.8 Y125.963
G1 F900 X120.505 Y146.668 E105.98222
G0 F6000 X121.212 Y146.668
G1 F900 X99.8 Y125.255 E106.9894
G0 F6000 X99.8 Y124.548
G1 F900 X121.919 Y146.668 E108.02983
G0 F6000 X122.626 Y146.668
G1 F900 X99.8 Y123.841 E109.10352
G0 F6000 X99.8 Y123.134
G1 F900 X123.334 Y146.668 E110.21049
G0 F6000 X124.041 Y146.668
G1 F900 X99.8 Y122.427 E111.35071
G0 F6000 X99.8 Y121.72
G1 F900 X124.748 Y146.668 E112.52419
G0 F6000 X125.455 Y146.668
G1 F900 X99.8 Y121.013 E113.73092
G0 F6000 X99.8 Y120.306
G1 F900 X126.162 Y146.668 E114.97091
G0 F6000 X126.869 Y146.668
G1 F900 X99.8 Y119.599 E116.24415
G0 F6000 X99.8 Y118.892
G1 F900 X127.576 Y146.668 E117.55065
G0 F6000 X128.283 Y146.668
G1 F900 X99.8 Y118.184 E118.89043
G0 F6000 X99.8 Y117.477
G1 F900 X128.99 Y146.668 E120.26346
G0 F6000 X129.698 Y146.668
G1 F900 X99.8 Y116.77 E121.66977
G0 F6000 X99.8 Y116.063
G1 F900 X130.405 Y146.668 E123.10933
G0 F6000 X131.112 Y146.668
G1 F900 X99.8 Y115.356 E124.58216
G0 F6000 X99.8 Y114.649
G1 F900 X131.819 Y146.668 E126.08823
G0 F6000 X132.526 Y146.668
G1 F900 X99.8 Y113.942 E127.62756
G0 F6000 X99.8 Y113.235
G1 F900 X133.233 Y146.668 E129.20015
G0 F6000 X133.94 Y146.668
G1 F900 X99.8 Y112.528 E130.80599
G0 F6000 X99.8 Y111.82
G1 F900 X134.647 Y146.668 E132.44511
G0 F6000 X135.192 Y146.506
G1 F900 X99.8 Y111.113 E134.10986
G0 F6000 X99.8 Y110.406
G1 F900 X135.192 Y145.799 E135.77462
G0 F6000 X135.192 Y145.092
G1 F900 X99.8 Y109.699 E137.43937
G0 F6000 X99.8 Y108.992
G1 F900 X135.192 Y144.385 E139.10413
G0 F6000 X135.192 Y143.678
G1 F900 X99.8 Y108.285 E140.76888
G0 F6000 X99.8 Y107.578
G1 F900 X135.192 Y142.971 E142.43364
G0 F6000 X135.192 Y142.264
G1 F900 X99.8 Y106.871 E144.09839
G0 F6000 X99.8 Y106.164
G1 F900 X135.192 Y141.556 E145.76312
G0 F6000 X135.192 Y140.849
G1 F900 X99.8 Y105.456 E147.42788
G0 F6000 X99.8 Y104.749
G1 F900 X135.192 Y140.142 E149.09263
G0 F6000 X135.192 Y139.435
G1 F900 X99.8 Y104.042 E150.75739
G0 F6000 X99.8 Y103.335
G1 F900 X135.192 Y138.728 E152.42214
G0 F6000 X135.192 Y138.021
G1 F900 X99.8 Y102.628 E154.0869
G0 F6000 X99.8 Y101.921
G1 F900 X135.192 Y137.314 E155.75165
G0 F6000 X135.192 Y136.607
G1 F900 X99.8 Y101.214 E157.4164
G0 F6000 X99.8 Y100.507
G1 F900 X135.192 Y135.9 E159.08116
G0 F6000 X135.192 Y135.192
G1 F900 X99.8 Y99.8 E160.74589
G0 F6000 X99.8 Y99.093
G1 F900 X135.192 Y134.485 E162.41062
G0 F6000 X135.192 Y133.778
G1 F900 X99.8 Y98.385 E164.07538
G0 F6000 X99.8 Y97.678
G1 F900 X135.192 Y133.071 E165.74013
G0 F6000 X135.192 Y132.364
G1 F900 X99.8 Y96.971 E167.40489
G0 F6000 X99.8 Y96.264
G1 F900 X135.192 Y131.657 E169.06964
G0 F6000 X135.192 Y130.95
G1 F900 X99.8 Y95.557 E170.7344
G0 F6000 X99.8 Y94.85
G1 F900 X135.192 Y130.243 E172.39915
G0 F6000 X135.192 Y129.536
G1 F900 X99.8 Y94.143 E174.0639
G0 F6000 X99.8 Y93.436
G1 F900 X135.192 Y128.828 E175.72864
G0 F6000 X135.192 Y128.121
G1 F900 X99.8 Y92.729 E177.39337
G0 F6000 X99.8 Y92.021
G1 F900 X135.192 Y127.414 E179.05812
G0 F6000 X135.192 Y126.707
G1 F900 X99.8 Y91.314 E180.72288
G0 F6000 X99.8 Y90.607
G1 F900 X135.192 Y126 E182.38763
G0 F6000 X135.192 Y125.293
G1 F900 X99.8 Y89.9 E184.05239
G0 F6000 X99.8 Y89.193
G1 F900 X135.192 Y124.586 E185.71714
G0 F6000 X135.192 Y123.879
G1 F900 X99.8 Y88.486 E187.3819
G0 F6000 X100.349 Y88.328
G1 F900 X135.192 Y123.172 E189.02083
G0 F6000 X135.192 Y122.465
G1 F900 X101.056 Y88.328 E190.6265
G0 F6000 X101.763 Y88.328
G1 F900 X135.192 Y121.757 E192.1989
G0 F6000 X135.192 Y121.05
G1 F900 X102.47 Y88.328 E193.73804
G0 F6000 X103.177 Y88.328
G1 F900 X135.192 Y120.343 E195.24393
G0 F6000 X135.192 Y119.636
G1 F900 X103.885 Y88.328 E196.71654
G0 F6000 X104.592 Y88.328
G1 F900 X135.192 Y118.929 E198.15589
G0 F6000 X135.192 Y118.222
G1 F900 X105.299 Y88.328 E199.56199
G0 F6000 X106.006 Y88.328
G1 F900 X135.192 Y117.515 E200.93484
G0 F6000 X135.192 Y116.808
G1 F900 X106.713 Y88.328 E202.27442
G0 F6000 X107.42 Y88.328
G1 F900 X135.192 Y116.101 E203.58076
G0 F6000 X135.192 Y115.393
G1 F900 X108.127 Y88.328 E204.85381
G0 F6000 X108.834 Y88.328
G1 F900 X135.192 Y114.686 E206.09361
G0 F6000 X135.192 Y113.979
G1 F900 X109.541 Y88.328 E207.30016
G0 F6000 X110.249 Y88.328
G1 F900 X135.192 Y113.272 E208.47342
G0 F6000 X135.192 Y112.565
G1 F900 X110.956 Y88.328 E209.61343
G0 F6000 X111.663 Y88.328
G1 F900 X135.192 Y111.858 E210.72019
G0 F6000 X135.192 Y111.151
G1 F900 X112.37 Y88.328 E211.79369
G0 F6000 X113.077 Y88.328
G1 F900 X135.192 Y110.444 E212.83393
G0 F6000 X135.192 Y109.737
G1 F900 X113.784 Y88.328 E213.84092
G0 F6000 X114.491 Y88.328
G1 F900 X135.192 Y109.03 E214.81466
G0 F6000 X135.192 Y108.322
G1 F900 X115.198 Y88.328 E215.75511
G0 F6000 X115.905 Y88.328
G1 F900 X135.192 Y107.615 E216.66232
G0 F6000 X135.192 Y106.908
G1 F900 X116.613 Y88.328 E217.53624
G0 F6000 X117.32 Y88.328
G1 F900 X135.192 Y106.201 E218.37691
G0 F6000 X135.192 Y105.494
G1 F900 X118.027 Y88.328 E219.18432
G0 F6000 X118.734 Y88.328
G1 F900 X135.192 Y104.787 E219.95848
G0 F6000 X135.192 Y104.08
G1 F900 X119.441 Y88.328 E220.69938
G0 F6000 X120.148 Y88.328
G1 F900 X135.192 Y103.373 E221.40703
G0 F6000 X135.192 Y102.666
G1 F900 X120.855 Y88.328 E222.08142
G0 F6000 X121.562 Y88.328
G1 F900 X135.192 Y101.958 E222.72253
G0 F6000 X135.192 Y101.251
G1 F900 X122.269 Y88.328 E223.33039
G0 F6000 X122.976 Y88.328
G1 F900 X135.192 Y100.544 E223.90499
G0 F6000 X135.192 Y99.837
G1 F900 X123.684 Y88.328 E224.44632
G0 F6000 X124.391 Y88.328
G1 F900 X135.192 Y99.13 E224.95439
G0 F6000 X135.192 Y98.423
G1 F900 X125.098 Y88.328 E225.4292
G0 F6000 X125.805 Y88.328
G1 F900 X135.192 Y97.716 E225.87076
G0 F6000 X135.192 Y97.009
G1 F900 X126.512 Y88.328 E226.27906
G0 F6000 X127.219 Y88.328
G1 F900 X135.192 Y96.302 E226.65411
G0 F6000 X135.192 Y95.594
G1 F900 X127.926 Y88.328 E226.99588
G0 F6000 X128.633 Y88.328
G1 F900 X135.192 Y94.887 E227.3044
G0 F6000 X135.192 Y94.18
G1 F900 X129.34 Y88.328 E227.57966
G0 F6000 X130.048 Y88.328
G1 F900 X135.192 Y93.473 E227.82164
G0 F6000 X135.192 Y92.766
G1 F900 X130.755 Y88.328 E228.03037
G0 F6000 X131.462 Y88.328
G1 F900 X135.192 Y92.059 E228.20584
G0 F6000 X135.192 Y91.352
G1 F900 X132.169 Y88.328 E228.34805
G0 F6000 X132.876 Y88.328
G1 F900 X135.192 Y90.645 E228.45702
G0 F6000 X135.192 Y89.938
G1 F900 X133.583 Y88.328 E228.53272
G0 F6000 X134.29 Y88.328
G1 F900 X135.192 Y89.231 E228.57517
G0 F6000 X135.192 Y88.523
G1 F900 X134.997 Y88.328 E228.58434
G0 F6000 X134.997 Y87.39
G1 F2700 E223.58434
;MESH:NONMESH
G0 F300 X134.997 Y87.39 Z0.55
G0 F6000 X135.672 Y87.852
G0 X135.672 Y147.148
G0 X117.5 Y147.37
;TIME_ELAPSED:475.852967
;LAYER:1
