;FLAVOR:Marlin
;TIME:1608
;Filament used: 1.377m
;Layer height: 0.35
;MINX:93.605
;MINY:87.74
;MINZ:0.2
;MAXX:141.395
;MAXY:147.26
;MAXZ:7.2
;TARGET_MACHINE.NAME:Creality Ender-3
;Generated with Cura_SteamEngine 5.9.0
M140 S75
M105
M190 S75
M104 S240
M105
M109 S240
M82 ;absolute extrusion mode
; Ender 3 Custom Start G-code
G92 E0 ; Reset Extruder
G28 ; Home all axes
G1 Z2.0 F3000 ; Move Z Axis up little to prevent scratching of Heat Bed
G1 X0.1 Y20 Z0.3 F5000.0 ; Move to start position
G1 X0.1 Y200.0 Z0.3 F1500.0 E15 ; Draw the first line
G1 X0.4 Y200.0 Z0.3 F5000.0 ; Move to side a little
G1 X0.4 Y20 Z0.3 F1500.0 E30 ; Draw the second line
G92 E0 ; Reset Extruder
G1 Z2.0 F3000 ; Move Z Axis up little to prevent scratching of Heat Bed
G1 X5 Y20 Z0.3 F5000.0 ; Move over to prevent blob squish
G92 E0
G92 E0
G1 F2700 E-5
;LAYER_COUNT:21
;LAYER:0
M107
G0 F6000 X135.391 Y147.205 Z0.2
;TYPE:SKIRT
G1 F2700 E0
G1 F900 X134.584 Y147.26 E0.0269
G1 X100.023 Y147.238 E1.17641
G1 X99.007 Y147.107 E1.21048
G1 X98.367 Y146.939 E1.23249
G1 X97.253 Y146.471 E1.27268
G1 X96.354 Y145.936 E1.30747
G1 X95.567 Y145.223 E1.34279
G1 X94.752 Y144.223 E1.3857
G1 X94.372 Y143.574 E1.41071
G1 X93.98 Y142.679 E1.44321
G1 X93.695 Y141.493 E1.48378
G1 X93.615 Y140.684 E1.51082
G1 X93.605 Y91.165 E3.15783
G1 X93.805 Y90.238 E3.18937
G1 X93.914 Y89.951 E3.19958
G1 X94.422 Y89.17 E3.23057
G1 X94.804 Y88.731 E3.24992
G1 X95.636 Y88.143 E3.28381
G1 X96.235 Y87.875 E3.30563
G1 X96.784 Y87.74 E3.32444
G1 X137.97 Y87.74 E4.69429
G1 X138.897 Y87.94 E4.72583
G1 X139.184 Y88.049 E4.73604
G1 X139.965 Y88.557 E4.76703
G1 X140.404 Y88.939 E4.78638
G1 X140.992 Y89.771 E4.82027
G1 X141.26 Y90.37 E4.8421
G1 X141.395 Y90.919 E4.8609
G1 X141.375 Y140.825 E6.52078
G1 X141.28 Y141.64 E6.54807
G1 X140.968 Y142.798 E6.58796
G1 X140.566 Y143.693 E6.62059
G1 X140.07 Y144.511 E6.65241
G1 X139.233 Y145.414 E6.69336
G1 X138.334 Y146.126 E6.7315
G1 X137.652 Y146.521 E6.75772
G1 X136.504 Y146.985 E6.7989
G1 X135.391 Y147.205 E6.83664
G0 F6000 X135.356 Y146.706
G1 F900 X134.584 Y146.76 E6.86238
G1 X100.085 Y146.742 E8.00982
G1 X99.134 Y146.623 E8.04169
G1 X98.494 Y146.455 E8.0637
G1 X97.449 Y146.011 E8.10147
G1 X96.656 Y145.534 E8.13224
G1 X95.903 Y144.852 E8.16604
G1 X95.182 Y143.968 E8.20398
G1 X94.83 Y143.373 E8.22697
G1 X94.456 Y142.52 E8.25795
G1 X94.193 Y141.444 E8.29479
G1 X94.113 Y140.635 E8.32183
G1 X94.105 Y91.219 E9.96541
G1 X94.294 Y90.343 E9.99522
G1 X94.361 Y90.18 E10.00108
G1 X94.8 Y89.498 E10.02806
G1 X95.143 Y89.103 E10.04546
G1 X95.886 Y88.578 E10.07571
G1 X96.394 Y88.351 E10.09422
G1 X96.846 Y88.24 E10.1097
G1 X137.916 Y88.24 E11.47569
G1 X138.792 Y88.429 E11.5055
G1 X138.955 Y88.496 E11.51136
G1 X139.637 Y88.935 E11.53834
G1 X140.032 Y89.278 E11.55574
G1 X140.557 Y90.021 E11.586
G1 X140.784 Y90.529 E11.6045
G1 X140.895 Y90.981 E11.61998
G1 X140.878 Y140.771 E13.27601
G1 X140.797 Y141.512 E13.3008
G1 X140.511 Y142.595 E13.33805
G1 X140.138 Y143.434 E13.36859
G1 X139.669 Y144.208 E13.39869
G1 X138.866 Y145.074 E13.43797
G1 X138.08 Y145.695 E13.47129
G1 X137.465 Y146.057 E13.49503
G1 X136.359 Y146.504 E13.5347
G1 X135.356 Y146.706 E13.56873
G0 F6000 X135.32 Y146.207
G1 F900 X134.584 Y146.26 E13.59328
G1 X100.145 Y146.246 E14.73872
G1 X99.261 Y146.139 E14.76834
G1 X98.621 Y145.971 E14.79035
G1 X97.707 Y145.583 E14.82337
G1 X96.959 Y145.133 E14.8524
G1 X96.239 Y144.481 E14.88471
G1 X95.611 Y143.711 E14.91776
G1 X95.288 Y143.172 E14.93866
G1 X94.932 Y142.36 E14.96815
G1 X94.679 Y141.325 E15.00359
G1 X94.611 Y140.589 E15.02817
G1 X94.605 Y91.273 E16.66843
G1 X94.783 Y90.448 E16.6965
G1 X95.178 Y89.826 E16.721
G1 X95.484 Y89.473 E16.73654
G1 X96.13 Y89.017 E16.76284
G1 X96.558 Y88.826 E16.77843
G1 X96.908 Y88.74 E16.79042
G1 X137.862 Y88.74 E18.15255
G1 X138.687 Y88.918 E18.18062
G1 X139.309 Y89.313 E18.20513
G1 X139.662 Y89.619 E18.22067
G1 X140.118 Y90.265 E18.24697
G1 X140.309 Y90.693 E18.26256
G1 X140.395 Y91.043 E18.27455
G1 X140.381 Y140.717 E19.92671
G1 X140.3 Y141.458 E19.9515
G1 X140.053 Y142.394 E19.9837
G1 X139.71 Y143.175 E20.01207
G1 X139.268 Y143.905 E20.04045
G1 X138.499 Y144.734 E20.07806
G1 X137.826 Y145.264 E20.10655
G1 X137.211 Y145.626 E20.13029
G1 X136.219 Y146.022 E20.16582
G1 X135.32 Y146.207 E20.19634
G0 F6000 X135.283 Y145.708
G1 F900 X134.584 Y145.76 E20.21966
G1 X100.202 Y145.749 E21.36321
G1 X99.388 Y145.655 E21.39046
G1 X98.748 Y145.487 E21.41247
G1 X97.965 Y145.155 E21.44075
G1 X97.262 Y144.732 E21.46804
G1 X96.575 Y144.11 E21.49887
G1 X96.04 Y143.454 E21.52702
G1 X95.717 Y142.915 E21.54792
G1 X95.408 Y142.2 E21.57383
G1 X95.177 Y141.279 E21.60541
G1 X95.109 Y140.543 E21.62999
G1 X95.105 Y91.327 E23.26692
G1 X95.253 Y90.64 E23.2903
G1 X95.6 Y90.094 E23.31181
G1 X95.823 Y89.845 E23.32293
G1 X96.374 Y89.456 E23.34537
G1 X96.762 Y89.283 E23.3595
G1 X96.966 Y89.24 E23.36643
G1 X137.808 Y89.24 E24.72484
G1 X138.495 Y89.388 E24.74821
G1 X139.041 Y89.735 E24.76973
G1 X139.29 Y89.958 E24.78085
G1 X139.679 Y90.509 E24.80328
G1 X139.852 Y90.897 E24.81741
G1 X139.895 Y91.101 E24.82435
G1 X139.884 Y140.663 E26.47278
G1 X139.803 Y141.404 E26.49758
G1 X139.594 Y142.195 E26.52479
G1 X139.282 Y142.916 E26.55092
G1 X138.865 Y143.605 E26.5777
G1 X138.188 Y144.343 E26.61101
G1 X137.572 Y144.833 E26.63719
G1 X136.957 Y145.195 E26.66093
G1 X136.075 Y145.541 E26.69244
G1 X135.283 Y145.708 E26.71936
G0 F6000 X135.244 Y145.209
G1 F900 X134.584 Y145.26 E26.74138
G1 X100.256 Y145.252 E27.88313
G1 X99.515 Y145.171 E27.90793
G1 X98.875 Y145.003 E27.92993
G1 X98.223 Y144.727 E27.95348
G1 X97.565 Y144.331 E27.97902
G1 X96.911 Y143.739 E28.00837
G1 X96.467 Y143.193 E28.03177
G1 X96.176 Y142.717 E28.05033
G1 X95.867 Y142.002 E28.07623
G1 X95.675 Y141.233 E28.1026
G1 X95.607 Y140.497 E28.12718
G1 X95.605 Y91.381 E29.76079
G1 X95.723 Y90.832 E29.77946
G1 X96.022 Y90.362 E29.79799
G1 X96.156 Y90.222 E29.80444
G1 X96.621 Y89.894 E29.82336
G1 X96.966 Y89.74 E29.83593
G1 X137.754 Y89.74 E31.19254
G1 X138.303 Y89.858 E31.21122
G1 X138.773 Y90.157 E31.22975
G1 X138.913 Y90.291 E31.23619
G1 X139.241 Y90.756 E31.25512
G1 X139.395 Y91.101 E31.26768
G1 X139.387 Y140.609 E32.91433
G1 X139.306 Y141.35 E32.93912
G1 X139.135 Y141.996 E32.96135
G1 X138.823 Y142.717 E32.98748
G1 X138.464 Y143.303 E33.01033
G1 X137.874 Y143.954 E33.03955
G1 X137.318 Y144.402 E33.0633
G1 X136.703 Y144.764 E33.08704
G1 X135.969 Y145.052 E33.11326
G1 X135.244 Y145.209 E33.13794
G0 F6000 X135.86 Y144.564
G1 F900 X135.205 Y144.711 E33.16026
G1 X134.584 Y144.76 E33.18098
G1 X100.307 Y144.755 E34.32104
G1 X99.639 Y144.687 E34.34337
G1 X99.067 Y144.541 E34.36301
G1 X98.481 Y144.298 E34.38411
G1 X97.862 Y143.926 E34.40813
G1 X97.297 Y143.421 E34.43333
G1 X96.894 Y142.932 E34.45441
G1 X96.603 Y142.456 E34.47296
G1 X96.351 Y141.877 E34.49396
G1 X96.173 Y141.187 E34.51767
G1 X96.105 Y140.451 E34.54225
G1 X96.105 Y91.436 E36.17249
G1 X96.194 Y91.024 E36.18651
G1 X96.444 Y90.63 E36.20203
G1 X96.866 Y90.332 E36.21922
G1 X97.073 Y90.24 E36.22675
G1 X137.699 Y90.24 E37.57798
G1 X138.111 Y90.329 E37.592
G1 X138.505 Y90.579 E37.60752
G1 X138.803 Y91.001 E37.6247
G1 X138.895 Y91.208 E37.63223
G1 X138.89 Y140.558 E39.27362
G1 X138.822 Y141.226 E39.29595
G1 X138.675 Y141.801 E39.31569
G1 X138.397 Y142.456 E39.33936
G1 X138.064 Y143 E39.36057
G1 X137.557 Y143.567 E39.38587
G1 X137.064 Y143.971 E39.40707
G1 X136.449 Y144.333 E39.43081
G1 X135.86 Y144.564 E39.45185
G0 F6000 X135.627 Y143.591
G1 F900 X135.123 Y143.715 E39.46911
G1 X134.584 Y143.76 E39.4871
G1 X100.396 Y143.759 E40.6242
G1 X99.877 Y143.715 E40.64152
G1 X99.373 Y143.591 E40.65879
G1 X98.929 Y143.407 E40.67477
G1 X98.454 Y143.116 E40.6933
G1 X98.06 Y142.775 E40.71063
G1 X97.748 Y142.41 E40.7266
G1 X97.457 Y141.934 E40.74516
G1 X97.273 Y141.49 E40.76114
G1 X97.144 Y140.95 E40.77961
G1 X97.105 Y140.451 E40.79626
G1 X97.105 Y91.49 E42.42471
G1 X97.144 Y91.356 E42.42935
G1 X97.276 Y91.24 E42.43519
G1 X137.645 Y91.24 E43.77787
G1 X137.779 Y91.279 E43.78251
G1 X137.895 Y91.411 E43.78836
G1 X137.894 Y140.469 E45.42003
G1 X137.85 Y140.988 E45.43736
G1 X137.727 Y141.49 E45.45455
G1 X137.543 Y141.934 E45.47053
G1 X137.252 Y142.41 E45.48909
G1 X136.912 Y142.803 E45.50637
G1 X136.546 Y143.116 E45.52239
G1 X136.071 Y143.407 E45.54092
G1 X135.627 Y143.591 E45.5569
G0 F6000 X135.746 Y144.077
G1 F900 X135.165 Y144.213 E45.57675
G1 X134.584 Y144.26 E45.59614
G1 X100.354 Y144.257 E46.73463
G1 X99.758 Y144.201 E46.75454
G1 X99.254 Y144.077 E46.7718
G1 X98.738 Y143.869 E46.79031
G1 X98.157 Y143.52 E46.81285
G1 X97.68 Y143.1 E46.83399
G1 X97.321 Y142.671 E46.8526
G1 X97.03 Y142.195 E46.87115
G1 X96.811 Y141.681 E46.88973
G1 X96.658 Y141.066 E46.91081
G1 X96.605 Y140.451 E46.93134
G1 X96.605 Y91.49 E48.55979
G1 X96.664 Y91.216 E48.56912
G1 X96.814 Y90.98 E48.57842
G1 X97.154 Y90.74 E48.59226
G1 X137.645 Y90.74 E49.93899
G1 X137.919 Y90.799 E49.94832
G1 X138.155 Y90.949 E49.95762
G1 X138.395 Y91.289 E49.97146
G1 X138.392 Y140.511 E51.60859
G1 X138.336 Y141.107 E51.6285
G1 X138.213 Y141.609 E51.64569
G1 X137.97 Y142.195 E51.66679
G1 X137.658 Y142.705 E51.68667
G1 X137.237 Y143.183 E51.70786
G1 X136.807 Y143.542 E51.72649
G1 X136.262 Y143.869 E51.74763
G1 X135.746 Y144.077 E51.76613
G1 F2700 E46.76613
;MESH:Body20
G0 F6000 X135.366 Y142.855
G0 X133.779 Y142.217
G0 X133.827 Y141.961
;TYPE:WALL-INNER
G1 F2700 E51.76613
G1 F618.1 X133.424 Y141.908 E51.78582
G1 F725.8 X133.255 Y141.731 E51.79591
G1 F896.4 X132.88 Y141.554 E51.80976
G1 F900 X132.492 Y141.229 E51.82659
G1 X132.191 Y140.816 E51.84359
G1 X132.002 Y140.34 E51.86062
G1 X131.942 Y139.857 E51.87681
G1 X132 Y139.345 E51.89395
G1 X132.199 Y138.844 E51.91188
G1 X132.498 Y138.441 E51.92857
G1 X132.886 Y138.119 E51.94534
G1 X133.337 Y137.907 E51.96192
G1 X133.844 Y137.809 E51.97909
G1 X134.356 Y137.841 E51.99615
G1 X134.839 Y138 E52.01307
G1 X135.26 Y138.268 E52.02966
G1 X135.615 Y138.64 E52.04677
G1 X135.816 Y139.009 E52.06074
G1 X135.883 Y139.181 E52.06688
G1 F738.9 X136.091 Y139.495 E52.08214
G1 F628.5 X136.08 Y140.144 E52.11306
G1 F604.8 X135.979 Y140.669 E52.13952
G1 F572.5 X135.74 Y141.128 E52.16657
G1 F556.9 X135.402 Y141.499 E52.19355
G1 F566.8 X134.896 Y141.809 E52.22489
G1 F595.2 X134.414 Y141.932 E52.24991
G1 F614.8 X133.827 Y141.961 E52.27852
G1 F2700 E47.27852
G0 F6000 X133.779 Y142.217
G0 X125.372 Y141.508
G0 X125.372 Y138.953
G0 X125.372 Y138.722
G1 F2700 E52.27852
G1 F900 X125.098 Y138.701 E52.28766
G1 X124.445 Y138.598 E52.30965
G1 X123.791 Y138.398 E52.3324
G1 X123.552 Y138.305 E52.34093
G1 X123.064 Y138.073 E52.3589
G1 X122.819 Y137.931 E52.36832
G1 X122.262 Y137.545 E52.39086
G1 X121.77 Y137.092 E52.4131
G1 X121.589 Y136.898 E52.42193
G1 X121.253 Y136.478 E52.43982
G1 X121.102 Y136.257 E52.44872
G1 X120.826 Y135.777 E52.46713
G1 X120.712 Y135.537 E52.47597
G1 X120.464 Y134.897 E52.4988
G1 X120.29 Y134.122 E52.52522
G1 X120.231 Y133.449 E52.54769
G1 X120.231 Y133.166 E52.5571
G1 X120.287 Y132.493 E52.57956
G1 X120.469 Y131.701 E52.60659
G1 X120.765 Y130.961 E52.6331
G1 X121.15 Y130.274 E52.65929
G1 X121.706 Y129.586 E52.68871
G1 X122.248 Y129.083 E52.71331
G1 X122.918 Y128.616 E52.74047
G1 X123.669 Y128.261 E52.7681
G1 X124.452 Y128.021 E52.79534
G1 X125.241 Y127.902 E52.82188
G1 X126.058 Y127.902 E52.84905
G1 X126.846 Y128.019 E52.87555
G1 X127.512 Y128.219 E52.89868
G1 X127.753 Y128.314 E52.90729
G1 X128.245 Y128.55 E52.92544
G1 X128.474 Y128.681 E52.93422
G1 X128.926 Y128.989 E52.95241
G1 X129.133 Y129.155 E52.96123
G1 X129.537 Y129.53 E52.97957
G1 X129.711 Y129.718 E52.98809
G1 X130.047 Y130.138 E53.00598
G1 X130.195 Y130.355 E53.01471
G1 X130.475 Y130.839 E53.03331
G1 X130.591 Y131.079 E53.04218
G1 X130.79 Y131.591 E53.06045
G1 X130.868 Y131.845 E53.06928
G1 X131.017 Y132.511 E53.09198
G1 X131.074 Y133.308 E53.11856
G1 X131.018 Y134.092 E53.1447
G1 X130.837 Y134.894 E53.17205
G1 X130.539 Y135.661 E53.19941
G1 X130.124 Y136.373 E53.22682
G1 X129.642 Y136.979 E53.25258
G1 X129.058 Y137.534 E53.27937
G1 X128.355 Y138.014 E53.30769
G1 X127.753 Y138.302 E53.32988
G1 X127.512 Y138.397 E53.3385
G1 X126.856 Y138.598 E53.36132
G1 X126.199 Y138.701 E53.38344
G1 X125.928 Y138.722 E53.39248
G1 X125.372 Y138.722 E53.41097
G0 F6000 X125.271 Y138.222
G1 F900 X124.555 Y138.109 E53.43508
G1 X123.853 Y137.894 E53.4595
G1 X123.186 Y137.577 E53.48406
G1 X122.576 Y137.154 E53.50875
G1 X122.038 Y136.658 E53.53309
G1 X121.584 Y136.091 E53.55725
G1 X121.213 Y135.446 E53.582
G1 X120.945 Y134.754 E53.60668
G1 X120.784 Y134.046 E53.63083
G1 X120.726 Y133.303 E53.65561
G1 X120.786 Y132.559 E53.68044
G1 X120.948 Y131.852 E53.70456
G1 X121.216 Y131.176 E53.72875
G1 X121.59 Y130.522 E53.75381
G1 X122.022 Y129.98 E53.77686
G1 X122.551 Y129.486 E53.80093
G1 X123.211 Y129.029 E53.82764
G1 X123.852 Y128.722 E53.85127
G1 X124.567 Y128.504 E53.87614
G1 X125.278 Y128.401 E53.90003
G1 X126.021 Y128.401 E53.92474
G1 X126.737 Y128.507 E53.94882
G1 X127.453 Y128.724 E53.9737
G1 X128.114 Y129.042 E53.9981
G1 X128.722 Y129.456 E54.02256
G1 X129.262 Y129.957 E54.04706
G1 X129.712 Y130.52 E54.07103
G1 X130.092 Y131.176 E54.09625
G1 X130.359 Y131.86 E54.12067
G1 X130.52 Y132.578 E54.14515
G1 X130.574 Y133.308 E54.16949
G1 X130.513 Y134.064 E54.19472
G1 X130.358 Y134.75 E54.21811
G1 X130.088 Y135.445 E54.24291
G1 X129.712 Y136.091 E54.26777
G1 X129.26 Y136.655 E54.29181
G1 X128.709 Y137.167 E54.31683
G1 X128.087 Y137.586 E54.34177
G1 X127.458 Y137.89 E54.365
G1 X126.747 Y138.11 E54.38976
G1 X126.025 Y138.222 E54.41406
G1 X125.271 Y138.222 E54.43914
G0 F6000 X125.307 Y137.722
G1 F900 X124.62 Y137.606 E54.46231
G1 X124.031 Y137.426 E54.4828
G1 X123.439 Y137.144 E54.50461
G1 X122.932 Y136.793 E54.52512
G1 X122.409 Y136.322 E54.54852
G1 X121.997 Y135.807 E54.57046
G1 X121.664 Y135.227 E54.5927
G1 X121.425 Y134.611 E54.61468
G1 X121.278 Y133.97 E54.63655
G1 X121.226 Y133.305 E54.65874
G1 X121.276 Y132.661 E54.68022
G1 X121.415 Y132.048 E54.70113
G1 X121.667 Y131.392 E54.7245
G1 X122.002 Y130.806 E54.74695
G1 X122.42 Y130.286 E54.76914
G1 X122.875 Y129.867 E54.78972
G1 X123.437 Y129.473 E54.81254
G1 X124.032 Y129.19 E54.83446
G1 X124.673 Y128.996 E54.85673
G1 X125.316 Y128.9 E54.87836
G1 X125.984 Y128.9 E54.90057
G1 X126.628 Y128.995 E54.92223
G1 X127.274 Y129.192 E54.94469
G1 X127.862 Y129.474 E54.96638
G1 X128.406 Y129.845 E54.98828
G1 X128.856 Y130.262 E55.00868
G1 X129.301 Y130.806 E55.03206
G1 X129.637 Y131.387 E55.05438
G1 X129.881 Y132.01 E55.07664
G1 X130.028 Y132.703 E55.1002
G1 X130.074 Y133.308 E55.12038
G1 X130.02 Y133.981 E55.14284
G1 X129.879 Y134.605 E55.16411
G1 X129.637 Y135.229 E55.18637
G1 X129.299 Y135.808 E55.20867
G1 X128.894 Y136.315 E55.23026
G1 X128.405 Y136.773 E55.25254
G1 X127.848 Y137.147 E55.27485
G1 X127.275 Y137.423 E55.29601
G1 X126.634 Y137.621 E55.31832
G1 X125.987 Y137.722 E55.3401
G1 X125.307 Y137.722 E55.36272
G1 F2700 E50.36272
G0 F6000 X125.254 Y138.074
G0 X122.966 Y138.282
G0 X122.966 Y141.508
G0 X117.5 Y141.757
G1 F2700 E55.36272
G1 F900 X131.642 Y141.757 E55.83308
G1 X131.436 Y141.478 E55.84462
G1 X131.225 Y141.094 E55.85919
G1 X131.109 Y140.803 E55.86961
G1 X130.999 Y140.374 E55.88434
G1 X130.959 Y140.053 E55.8951
G1 X130.943 Y139.743 E55.90542
G1 X130.999 Y139.299 E55.92031
G1 X131.067 Y138.99 E55.93083
G1 X131.267 Y138.467 E55.94946
G1 X131.43 Y138.202 E55.9598
G1 X131.704 Y137.837 E55.97498
G1 X131.883 Y137.653 E55.98352
G1 X132.238 Y137.359 E55.99885
G1 X132.472 Y137.211 E56.00806
G1 X132.951 Y136.983 E56.0257
G1 X133.249 Y136.904 E56.03596
G1 X133.705 Y136.824 E56.05136
G1 X134.002 Y136.817 E56.06124
G1 X134.322 Y136.837 E56.0719
G1 X134.759 Y136.921 E56.0867
G1 X135.064 Y137.021 E56.09738
G1 X135.456 Y137.207 E56.11181
G1 X135.894 Y137.488 E56.12912
G1 X135.894 Y97.505 E57.45896
G1 X135.472 Y97.783 E57.47577
G1 X135.044 Y97.985 E57.49151
G1 X134.739 Y98.081 E57.50214
G1 X134.322 Y98.159 E57.51625
G1 X134.002 Y98.179 E57.52692
G1 X133.586 Y98.156 E57.54077
G1 X133.02 Y98.045 E57.55996
G1 X132.459 Y97.782 E57.58056
G1 X132.24 Y97.643 E57.58919
G1 X131.871 Y97.336 E57.60516
