;FLAVOR:Marlin
;TIME:8768
;Filament used: 10.0813m
;Layer height: 0.35
;MINX:31.385
;MINY:39.8
;MINZ:0.2
;MAXX:203.585
;MAXY:195.2
;MAXZ:1.6
;TARGET_MACHINE.NAME:Creality Ender-3
;Generated with Cura_SteamEngine 5.9.0
M140 S75
M105
M190 S75
M104 S240
M105
M109 S240
M82 ;absolute extrusion mode
; Ender 3 Custom Start G-code
G92 E0 ; Reset Extruder
G28 ; Home all axes
G1 Z2.0 F3000 ; Move Z Axis up little to prevent scratching of Heat Bed
G1 X0.1 Y20 Z0.3 F5000.0 ; Move to start position
G1 X0.1 Y200.0 Z0.3 F1500.0 E15 ; Draw the first line
G1 X0.4 Y200.0 Z0.3 F5000.0 ; Move to side a little
G1 X0.4 Y20 Z0.3 F1500.0 E30 ; Draw the second line
G92 E0 ; Reset Extruder
G1 Z2.0 F3000 ; Move Z Axis up little to prevent scratching of Heat Bed
G1 X5 Y20 Z0.3 F5000.0 ; Move over to prevent blob squish
G92 E0
G92 E0
G1 F2700 E-5
;LAYER_COUNT:5
;LAYER:0
M107
G0 F6000 X32.66 Y111.687 Z0.2
;TYPE:SKIRT
G1 F2700 E0
G1 F900 X32.875 Y108.997 E0.11219
G1 X33.516 Y104.433 E0.30381
G1 X34.42 Y99.911 E0.49553
G1 X35.538 Y95.654 E0.67852
G1 X37.039 Y91.073 E0.87893
G1 X38.731 Y86.792 E1.07031
G1 X40.584 Y82.799 E1.25333
G1 X42.874 Y78.554 E1.45386
G1 X45.299 Y74.633 E1.64553
G1 X47.85 Y71.006 E1.82989
G1 X50.813 Y67.286 E2.02761
G1 X53.912 Y63.835 E2.22045
G1 X57.085 Y60.697 E2.40598
G1 X60.663 Y57.56 E2.60381
G1 X64.138 Y54.855 E2.7869
G1 X66.354 Y53.33 E2.89874
G1 X66.443 Y52.998 E2.91303
G1 X66.975 Y52.009 E2.95972
G1 X67.704 Y51.177 E3.00571
G1 X68.399 Y50.688 E3.04104
G1 X73.42 Y47.821 E3.28142
G1 X74.062 Y47.562 E3.3102
G1 X75.153 Y47.388 E3.35613
G1 X76.153 Y47.458 E3.39781
G1 X76.411 Y47.519 E3.40883
G1 X78.718 Y46.422 E3.51504
G1 X83.13 Y44.632 E3.71299
G1 X87.298 Y43.222 E3.89592
G1 X91.943 Y41.956 E4.09608
G1 X96.44 Y41.009 E4.28715
G1 X100.81 Y40.356 E4.47085
G1 X105.612 Y39.93 E4.67127
G1 X110.217 Y39.8 E4.8628
G1 X114.617 Y39.931 E5.04582
G1 X119.415 Y40.358 E5.24608
G1 X123.77 Y41.009 E5.42915
G1 X128.47 Y42.004 E5.62889
G1 X132.926 Y43.226 E5.82099
G1 X137.094 Y44.638 E6.00395
G1 X141.533 Y46.445 E6.2032
G1 X143.805 Y47.526 E6.30781
G1 X144.044 Y47.47 E6.31801
G1 X145.053 Y47.388 E6.3601
G1 X146.187 Y47.567 E6.40783
G1 X147.058 Y47.949 E6.44737
G1 X175.756 Y64.508 E7.82487
G1 X177.489 Y65.391 E7.90573
G1 X179.112 Y66.014 E7.97801
G1 X180.769 Y66.458 E8.04933
G1 X182.536 Y66.74 E8.12372
G1 X184.305 Y66.83 E8.19737
G1 X196.276 Y66.86 E8.69506
G1 X197.825 Y67.067 E8.76004
G1 X199.695 Y67.844 E8.84423
G1 X201.35 Y69.107 E8.93078
G1 X202.6 Y70.741 E9.01631
G1 X203.38 Y72.624 E9.10105
G1 X203.585 Y74.164 E9.16564
G1 X203.585 Y81.271 E9.46112
G1 X203.38 Y82.816 E9.52591
G1 X202.6 Y84.699 E9.61065
G1 X201.35 Y86.333 E9.69618
G1 X199.695 Y87.596 E9.78274
G1 X197.825 Y88.373 E9.86692
G1 X196.276 Y88.58 E9.9319
G1 X190.401 Y88.61 E10.17615
G1 X189.875 Y88.67 E10.19816
G1 X189.604 Y88.765 E10.2101
G1 X189.357 Y88.92 E10.22223
G1 X189.138 Y89.139 E10.2351
G1 X188.98 Y89.391 E10.24747
G1 X188.884 Y89.665 E10.25954
G1 X188.825 Y90.18 E10.28109
G1 X188.825 Y144.821 E12.5528
G1 X188.884 Y145.335 E12.57431
G1 X188.98 Y145.609 E12.58638
G1 X189.138 Y145.861 E12.59875
G1 X189.357 Y146.08 E12.61162
G1 X189.604 Y146.235 E12.62375
G1 X189.875 Y146.33 E12.63569
G1 X190.401 Y146.39 E12.6577
G1 X196.276 Y146.42 E12.90195
G1 X197.825 Y146.627 E12.96693
G1 X199.695 Y147.404 E13.05112
G1 X201.35 Y148.667 E13.13767
G1 X202.6 Y150.301 E13.2232
G1 X203.38 Y152.184 E13.30794
G1 X203.585 Y153.724 E13.37253
G1 X203.585 Y160.831 E13.668
G1 X203.38 Y162.376 E13.7328
G1 X202.6 Y164.259 E13.81754
G1 X201.35 Y165.893 E13.90307
G1 X199.695 Y167.156 E13.98962
G1 X197.825 Y167.933 E14.07381
G1 X196.276 Y168.14 E14.13879
G1 X184.305 Y168.17 E14.63648
G1 X182.536 Y168.26 E14.71013
G1 X180.769 Y168.542 E14.78452
G1 X179.112 Y168.986 E14.85584
G1 X177.489 Y169.609 E14.92812
G1 X175.756 Y170.492 E15.00898
G1 X146.914 Y187.121 E16.39312
G1 X146.165 Y187.437 E16.42691
G1 X145.049 Y187.612 E16.47388
G1 X144.057 Y187.542 E16.51522
G1 X143.799 Y187.481 E16.52625
G1 X141.492 Y188.578 E16.63245
G1 X137.08 Y190.368 E16.8304
G1 X132.912 Y191.778 E17.01334
G1 X128.267 Y193.044 E17.2135
G1 X123.77 Y193.991 E17.40456
G1 X119.4 Y194.644 E17.58826
G1 X114.598 Y195.07 E17.78869
G1 X109.993 Y195.2 E17.98022
G1 X105.593 Y195.069 E18.16323
G1 X100.795 Y194.642 E18.3635
G1 X96.44 Y193.991 E18.54657
G1 X91.74 Y192.996 E18.7463
G1 X87.284 Y191.774 E18.9384
G1 X83.116 Y190.362 E19.12136
G1 X78.677 Y188.555 E19.32062
G1 X76.405 Y187.474 E19.42522
G1 X76.166 Y187.53 E19.43543
G1 X75.154 Y187.612 E19.47764
G1 X74.016 Y187.432 E19.52554
G1 X72.947 Y186.948 E19.57433
G1 X68.395 Y184.308 E19.7931
G1 X67.568 Y183.699 E19.8358
G1 X66.86 Y182.816 E19.88286
G1 X66.426 Y181.922 E19.92417
G1 X66.349 Y181.666 E19.93529
G1 X64.222 Y180.204 E20.04259
G1 X60.491 Y177.298 E20.23921
G1 X57.184 Y174.393 E20.42221
G1 X53.762 Y171.002 E20.6225
G1 X50.822 Y167.725 E20.80554
G1 X47.823 Y163.951 E21.00595
G1 X45.173 Y160.179 E21.19761
G1 X42.846 Y156.408 E21.38183
G1 X40.577 Y152.187 E21.58107
G1 X38.725 Y148.195 E21.76403
G1 X36.964 Y143.713 E21.96424
G1 X35.534 Y139.331 E22.15588
G1 X34.418 Y135.075 E22.3388
G1 X33.478 Y130.349 E22.53913
G1 X32.874 Y125.989 E22.72213
G1 X32.66 Y123.323 E22.83333
G1 X32.429 Y123.087 E22.84706
G1 X31.821 Y122.104 E22.89511
G1 X31.464 Y121.036 E22.94193
G1 X31.385 Y120.043 E22.98334
G1 X31.411 Y114.531 E23.21251
G1 X31.512 Y113.757 E23.24496
G1 X31.909 Y112.718 E23.2912
G1 X32.481 Y111.877 E23.33349
G1 X32.66 Y111.687 E23.34434
G0 F6000 X33.143 Y111.913
G1 F900 X33.37 Y109.066 E23.46308
G1 X34.006 Y104.531 E23.65347
G1 X34.904 Y100.038 E23.84396
G1 X36.022 Y95.781 E24.02695
G1 X37.504 Y91.257 E24.22487
G1 X39.185 Y87.002 E24.41508
G1 X41.038 Y83.009 E24.59809
G1 X43.299 Y78.817 E24.79611
G1 X45.708 Y74.921 E24.98655
G1 X48.241 Y71.318 E25.16966
G1 X51.204 Y67.598 E25.36738
G1 X54.264 Y64.191 E25.55777
G1 X57.437 Y61.053 E25.74331
G1 X60.97 Y57.955 E25.93866
G1 X64.445 Y55.25 E26.12175
G1 X66.79 Y53.637 E26.24008
G1 X66.911 Y53.183 E26.25961
G1 X67.389 Y52.295 E26.30154
G1 X68.039 Y51.553 E26.34255
G1 X68.687 Y51.097 E26.3755
G1 X73.607 Y48.285 E26.6111
G1 X74.197 Y48.047 E26.63755
G1 X75.175 Y47.891 E26.67872
G1 X76.118 Y47.957 E26.71802
G1 X76.459 Y48.05 E26.73272
G1 X78.933 Y46.874 E26.84661
G1 X83.29 Y45.106 E27.04209
G1 X87.458 Y43.696 E27.22503
G1 X92.046 Y42.445 E27.42274
G1 X96.514 Y41.504 E27.61257
G1 X100.884 Y40.851 E27.79627
G1 X105.626 Y40.43 E27.99419
G1 X110.202 Y40.3 E28.18452
G1 X114.602 Y40.431 E28.36753
G1 X119.341 Y40.853 E28.56534
G1 X123.696 Y41.504 E28.74841
G1 X128.338 Y42.486 E28.94567
G1 X132.766 Y43.7 E29.13656
G1 X136.934 Y45.112 E29.31952
G1 X141.318 Y46.896 E29.5163
G1 X143.76 Y48.058 E29.62873
G1 X144.084 Y47.968 E29.64271
G1 X145.032 Y47.891 E29.68225
G1 X146.045 Y48.051 E29.72489
G1 X146.857 Y48.407 E29.76175
G1 X175.529 Y64.954 E31.13807
G1 X177.283 Y65.847 E31.2199
G1 X178.958 Y66.49 E31.29449
G1 X180.665 Y66.948 E31.36797
G1 X182.478 Y67.237 E31.44429
G1 X184.298 Y67.33 E31.52006
G1 X196.21 Y67.356 E32.0153
G1 X197.694 Y67.554 E32.07755
G1 X199.446 Y68.282 E32.15643
G1 X200.992 Y69.462 E32.23729
G1 X202.163 Y70.993 E32.31742
G1 X202.892 Y72.753 E32.39662
G1 X203.089 Y74.23 E32.45857
G1 X203.089 Y81.205 E32.74856
G1 X202.892 Y82.687 E32.81072
G1 X202.163 Y84.447 E32.88992
G1 X200.992 Y85.978 E32.97005
G1 X199.446 Y87.158 E33.05091
G1 X197.694 Y87.886 E33.12979
G1 X196.21 Y88.084 E33.19203
G1 X190.369 Y88.11 E33.43487
G1 X189.764 Y88.179 E33.46019
G1 X189.384 Y88.312 E33.47693
G1 X189.043 Y88.526 E33.49367
G1 X188.744 Y88.825 E33.51125
G1 X188.527 Y89.171 E33.52823
G1 X188.393 Y89.554 E33.5451
G1 X188.325 Y90.149 E33.56999
G1 X188.325 Y144.852 E35.84428
G1 X188.393 Y145.446 E35.86914
G1 X188.527 Y145.829 E35.88601
G1 X188.744 Y146.175 E35.90299
G1 X189.043 Y146.474 E35.92057
G1 X189.384 Y146.688 E35.93731
G1 X189.764 Y146.821 E35.95404
G1 X190.369 Y146.89 E35.97936
G1 X196.21 Y146.916 E36.2222
G1 X197.694 Y147.114 E36.28445
G1 X199.446 Y147.842 E36.36333
G1 X200.992 Y149.022 E36.44418
G1 X202.163 Y150.553 E36.52432
G1 X202.892 Y152.313 E36.60352
G1 X203.089 Y153.79 E36.66547
G1 X203.089 Y160.765 E36.95546
G1 X202.892 Y162.247 E37.01761
G1 X202.163 Y164.007 E37.09681
G1 X200.992 Y165.538 E37.17695
G1 X199.446 Y166.718 E37.25781
G1 X197.694 Y167.446 E37.33669
G1 X196.21 Y167.644 E37.39893
G1 X184.298 Y167.67 E37.89417
G1 X182.478 Y167.763 E37.96994
G1 X180.665 Y168.052 E38.04627
G1 X178.958 Y168.51 E38.11975
G1 X177.283 Y169.153 E38.19434
G1 X175.529 Y170.046 E38.27617
G1 X146.72 Y186.66 E39.65881
G1 X146.027 Y186.952 E39.69007
G1 X145.028 Y187.109 E39.73212
G1 X144.092 Y187.043 E39.77113
G1 X143.751 Y186.95 E39.78582
G1 X141.277 Y188.126 E39.89971
G1 X136.92 Y189.894 E40.0952
G1 X132.752 Y191.304 E40.27813
G1 X128.164 Y192.555 E40.47584
G1 X123.696 Y193.496 E40.66567
G1 X119.326 Y194.149 E40.84937
G1 X114.584 Y194.57 E41.0473
G1 X110.008 Y194.7 E41.23762
G1 X105.608 Y194.569 E41.42063
G1 X100.869 Y194.147 E41.61844
G1 X96.514 Y193.496 E41.80151
G1 X91.872 Y192.514 E41.99877
G1 X87.444 Y191.3 E42.18966
G1 X83.276 Y189.888 E42.37262
G1 X78.892 Y188.104 E42.5694
G1 X76.45 Y186.942 E42.68183
G1 X76.126 Y187.032 E42.69581
G1 X75.175 Y187.109 E42.73548
G1 X74.16 Y186.948 E42.77821
G1 X73.198 Y186.515 E42.82207
G1 X68.646 Y183.875 E43.04084
G1 X67.916 Y183.334 E43.07862
G1 X67.285 Y182.547 E43.12056
G1 X66.876 Y181.704 E43.15951
G1 X66.786 Y181.36 E43.17429
G1 X64.529 Y179.809 E43.28815
G1 X60.821 Y176.922 E43.48353
G1 X57.514 Y174.017 E43.66653
G1 X54.134 Y170.668 E43.86435
G1 X51.194 Y167.391 E44.04739
G1 X48.232 Y163.664 E44.24531
G1 X45.599 Y159.916 E44.43575
G1 X43.272 Y156.145 E44.61997
G1 X41.031 Y151.977 E44.81672
G1 X39.179 Y147.985 E44.99968
G1 X37.439 Y143.558 E45.19744
G1 X36.018 Y139.204 E45.38785
G1 X34.902 Y134.948 E45.57078
G1 X33.973 Y130.28 E45.76865
G1 X33.369 Y125.92 E45.95165
G1 X33.142 Y123.085 E46.0699
G1 X32.854 Y122.824 E46.08606
G1 X32.277 Y121.891 E46.13166
G1 X31.957 Y120.934 E46.17362
G1 X31.885 Y120.045 E46.2107
G1 X31.907 Y114.595 E46.43728
G1 X32 Y113.88 E46.46726
G1 X32.356 Y112.949 E46.5087
G1 X32.894 Y112.158 E46.54847
G1 X33.143 Y111.913 E46.563
G0 F6000 X33.625 Y112.15
G1 F900 X33.865 Y109.135 E46.68874
G1 X34.496 Y104.629 E46.87791
G1 X35.388 Y100.165 E47.06717
G1 X36.506 Y95.908 E47.25015
G1 X37.969 Y91.441 E47.44558
G1 X39.639 Y87.212 E47.63461
G1 X41.492 Y83.219 E47.81763
G1 X43.724 Y79.08 E48.01313
G1 X46.117 Y75.209 E48.20234
G1 X48.65 Y71.606 E48.38545
G1 X51.576 Y67.932 E48.58072
G1 X54.616 Y64.547 E48.76987
G1 X57.789 Y61.409 E48.9554
G1 X61.277 Y58.35 E49.14829
G1 X64.752 Y55.645 E49.33137
G1 X67.225 Y53.944 E49.45616
G1 X67.38 Y53.367 E49.481
G1 X67.803 Y52.581 E49.51811
G1 X68.374 Y51.929 E49.55414
G1 X68.975 Y51.506 E49.5847
G1 X73.794 Y48.749 E49.81552
G1 X74.332 Y48.532 E49.83964
G1 X75.197 Y48.394 E49.87605
G1 X76.083 Y48.456 E49.91298
G1 X76.496 Y48.587 E49.93099
G1 X79.148 Y47.326 E50.05308
G1 X83.45 Y45.58 E50.24611
G1 X87.618 Y44.17 E50.42904
G1 X92.149 Y42.934 E50.6243
G1 X96.588 Y41.999 E50.8129
G1 X100.958 Y41.346 E50.9966
G1 X105.64 Y40.93 E51.19202
G1 X110.187 Y40.8 E51.38114
G1 X114.587 Y40.931 E51.56415
G1 X119.267 Y41.348 E51.7595
G1 X123.622 Y41.999 E51.94257
G1 X128.206 Y42.968 E52.13736
G1 X132.606 Y44.174 E52.32704
G1 X136.774 Y45.586 E52.51
G1 X141.129 Y47.359 E52.70549
G1 X143.715 Y48.59 E52.82456
G1 X144.175 Y48.462 E52.84441
G1 X145.011 Y48.394 E52.87928
G1 X145.903 Y48.535 E52.91683
G1 X146.656 Y48.865 E52.95101
G1 X175.302 Y65.4 E54.32614
G1 X177.077 Y66.304 E54.40895
G1 X178.804 Y66.966 E54.48585
G1 X180.561 Y67.438 E54.56148
G1 X182.42 Y67.734 E54.63975
G1 X184.291 Y67.83 E54.71763
G1 X196.144 Y67.852 E55.21043
G1 X197.563 Y68.041 E55.26994
G1 X199.197 Y68.72 E55.34351
G1 X200.634 Y69.817 E55.41867
G1 X201.726 Y71.245 E55.49341
G1 X202.404 Y72.882 E55.56707
G1 X202.593 Y74.296 E55.62638
G1 X202.593 Y81.139 E55.91088
G1 X202.404 Y82.558 E55.9704
G1 X201.726 Y84.195 E56.04406
G1 X200.634 Y85.623 E56.1188
G1 X199.197 Y86.72 E56.19397
G1 X197.563 Y87.399 E56.26753
G1 X196.144 Y87.588 E56.32705
G1 X190.337 Y87.61 E56.56848
G1 X189.653 Y87.688 E56.5971
G1 X189.164 Y87.859 E56.61863
G1 X188.729 Y88.132 E56.63999
G1 X188.35 Y88.511 E56.66227
G1 X188.074 Y88.951 E56.68386
G1 X187.902 Y89.443 E56.70553
G1 X187.825 Y90.118 E56.73378
G1 X187.825 Y144.883 E59.01064
G1 X187.902 Y145.557 E59.03885
G1 X188.074 Y146.049 E59.06052
G1 X188.35 Y146.489 E59.08211
G1 X188.729 Y146.868 E59.10439
G1 X189.164 Y147.141 E59.12575
G1 X189.653 Y147.312 E59.14728
G1 X190.337 Y147.39 E59.1759
G1 X196.144 Y147.412 E59.41733
G1 X197.563 Y147.601 E59.47685
G1 X199.197 Y148.28 E59.55042
G1 X200.634 Y149.377 E59.62558
G1 X201.726 Y150.805 E59.70032
G1 X202.404 Y152.442 E59.77398
G1 X202.593 Y153.856 E59.83329
G1 X202.593 Y160.699 E60.11779
G1 X202.404 Y162.118 E60.17731
G1 X201.726 Y163.755 E60.25097
G1 X200.634 Y165.183 E60.32571
G1 X199.197 Y166.28 E60.40087
G1 X197.563 Y166.959 E60.47444
G1 X196.144 Y167.148 E60.53395
G1 X184.291 Y167.17 E61.02675
G1 X182.42 Y167.266 E61.10464
G1 X180.561 Y167.562 E61.1829
G1 X178.804 Y168.034 E61.25853
G1 X177.077 Y168.696 E61.33543
G1 X175.302 Y169.6 E61.41824
G1 X146.526 Y186.199 E62.79938
G1 X145.888 Y186.468 E62.82817
G1 X145.008 Y186.606 E62.8652
G1 X144.127 Y186.544 E62.90192
G1 X143.714 Y186.413 E62.91993
G1 X141.062 Y187.674 E63.04202
G1 X136.76 Y189.42 E63.23505
G1 X132.592 Y190.83 E63.41798
G1 X128.061 Y192.066 E63.61324
G1 X123.622 Y193.001 E63.80184
G1 X119.252 Y193.654 E63.98554
G1 X114.57 Y194.07 E64.18096
G1 X110.023 Y194.2 E64.37008
G1 X105.623 Y194.069 E64.55309
G1 X100.943 Y193.652 E64.74844
G1 X96.588 Y193.001 E64.93151
G1 X92.004 Y192.032 E65.1263
G1 X87.604 Y190.826 E65.31598
G1 X83.436 Y189.414 E65.49894
G1 X79.081 Y187.641 E65.69443
G1 X76.495 Y186.41 E65.8135
G1 X76.035 Y186.538 E65.83335
G1 X75.196 Y186.606 E65.86835
G1 X74.302 Y186.464 E65.90598
G1 X73.449 Y186.082 E65.94484
G1 X68.897 Y183.442 E66.16361
G1 X68.265 Y182.97 E66.19641
G1 X67.71 Y182.278 E66.23329
G1 X67.326 Y181.486 E66.26988
G1 X67.232 Y181.06 E66.28802
G1 X64.812 Y179.397 E66.4101
G1 X61.151 Y176.546 E66.60301
G1 X57.844 Y173.641 E66.78602
G1 X54.506 Y170.334 E66.98137
G1 X51.566 Y167.057 E67.1644
G1 X48.641 Y163.377 E67.35984
G1 X46.025 Y159.653 E67.54905
G1 X43.698 Y155.882 E67.73328
G1 X41.485 Y151.767 E67.92753
G1 X39.633 Y147.775 E68.11049
G1 X37.914 Y143.403 E68.3058
G1 X36.502 Y139.077 E68.49499
G1 X35.386 Y134.821 E68.67792
G1 X34.468 Y130.211 E68.87334
G1 X33.864 Y125.851 E69.05634
G1 X33.624 Y122.848 E69.18159
G1 X33.242 Y122.501 E69.20305
G1 X32.732 Y121.677 E69.24334
G1 X32.45 Y120.833 E69.28033
G1 X32.385 Y120.047 E69.31312
G1 X32.403 Y114.659 E69.53713
G1 X32.488 Y114.003 E69.56463
G1 X32.803 Y113.18 E69.60127
G1 X33.307 Y112.439 E69.63853
G1 X33.625 Y112.15 E69.65639
G0 F6000 X34.107 Y112.386
G1 F900 X34.36 Y109.204 E69.7891
G1 X34.986 Y104.727 E69.97704
G1 X35.872 Y100.292 E70.16507
G1 X36.99 Y96.035 E70.34806
G1 X38.434 Y91.625 E70.54099
G1 X40.093 Y87.422 E70.72885
G1 X41.946 Y83.429 E70.91186
G1 X44.149 Y79.343 E71.10485
G1 X46.526 Y75.497 E71.29283
G1 X49.059 Y71.894 E71.47594
G1 X51.948 Y68.266 E71.66875
G1 X54.968 Y64.903 E71.85667
G1 X58.141 Y61.765 E72.0422
G1 X61.584 Y58.745 E72.23261
G1 X65.059 Y56.04 E72.4157
G1 X67.66 Y54.251 E72.54694
G1 X67.849 Y53.552 E72.57705
G1 X68.216 Y52.868 E72.60932
G1 X68.712 Y52.303 E72.64058
G1 X69.224 Y51.94 E72.66667
G1 X73.981 Y49.213 E72.89463
G1 X74.467 Y49.017 E72.91642
G1 X75.219 Y48.897 E72.94808
G1 X75.988 Y48.951 E72.98013
G1 X76.533 Y49.124 E73.0039
G1 X79.363 Y47.778 E73.13419
G1 X83.61 Y46.054 E73.32476
G1 X87.778 Y44.644 E73.50769
G1 X92.252 Y43.423 E73.7005
G1 X96.662 Y42.494 E73.88787
G1 X101.032 Y41.841 E74.07157
G1 X105.654 Y41.43 E74.26449
G1 X110.172 Y41.3 E74.4524
G1 X114.572 Y41.431 E74.63541
G1 X119.193 Y41.843 E74.82829
G1 X123.548 Y42.494 E75.01137
G1 X128.074 Y43.45 E75.20369
G1 X132.446 Y44.648 E75.39215
G1 X136.614 Y46.06 E75.57511
G1 X140.914 Y47.81 E75.76812
