;FLAVOR:Marlin
;TIME:3141
;Filament used: 2.73854m
;Layer height: 0.35
;MINX:95.72
;MINY:92.443
;MINZ:0.2
;MAXX:156.165
;MAXY:155.063
;MAXZ:12.1
;TARGET_MACHINE.NAME:Creality Ender-3
;Generated with Cura_SteamEngine 5.9.0
M140 S75
M105
M190 S75
M104 S240
M105
M109 S240
M82 ;absolute extrusion mode
; Ender 3 Custom Start G-code
G92 E0 ; Reset Extruder
G28 ; Home all axes
G1 Z2.0 F3000 ; Move Z Axis up little to prevent scratching of Heat Bed
G1 X0.1 Y20 Z0.3 F5000.0 ; Move to start position
G1 X0.1 Y200.0 Z0.3 F1500.0 E15 ; Draw the first line
G1 X0.4 Y200.0 Z0.3 F5000.0 ; Move to side a little
G1 X0.4 Y20 Z0.3 F1500.0 E30 ; Draw the second line
G92 E0 ; Reset Extruder
G1 Z2.0 F3000 ; Move Z Axis up little to prevent scratching of Heat Bed
G1 X5 Y20 Z0.3 F5000.0 ; Move over to prevent blob squish
G92 E0
G92 E0
G1 F2700 E-5
;LAYER_COUNT:35
;LAYER:0
M107
G0 F6000 X106.587 Y154.883 Z0.2
;TYPE:SKIRT
G1 F2700 E0
G1 F900 X105.04 Y155.063 E0.0518
G1 X103.392 Y155.024 E0.10663
G1 X102.236 Y154.848 E0.14552
G1 X100.592 Y154.006 E0.20695
G1 X99.906 Y153.446 E0.23641
G1 X99.283 Y152.664 E0.26966
G1 X99.018 Y151.924 E0.29581
G1 X98.981 Y151.772 E0.30101
G1 X98.595 Y151.095 E0.32693
G1 X98.326 Y150.243 E0.35665
G1 X98.298 Y149.784 E0.37194
G1 X98.217 Y149.395 E0.38516
G1 X98.223 Y148.853 E0.40318
G1 X98.242 Y148.696 E0.40844
G1 X98.209 Y148.438 E0.41709
G1 X98.203 Y148.032 E0.4306
G1 X98.212 Y147.899 E0.43503
G1 X98.182 Y147.544 E0.44688
G1 X98.203 Y147.053 E0.46323
G1 X98.161 Y146.71 E0.47472
G1 X98.211 Y145.797 E0.50513
G1 X98.378 Y145.25 E0.52416
G1 X98.785 Y144.356 E0.55683
G1 X99.215 Y143.904 E0.57758
G1 X97.976 Y143.177 E0.62536
G1 X96.983 Y142.137 E0.67318
G1 X96.381 Y141.162 E0.71129
G1 X95.872 Y140.108 E0.75022
G1 X95.728 Y138.897 E0.79079
G1 X95.72 Y136.568 E0.86825
G1 X96.19 Y135.199 E0.91639
G1 X96.588 Y134.479 E0.94375
G1 X96.737 Y134.3 E0.9515
G1 X96.322 Y133.682 E0.97626
G1 X95.942 Y132.754 E1.00961
G1 X95.721 Y131.929 E1.03802
G1 X95.72 Y129.143 E1.13068
G1 X96.231 Y127.635 E1.18364
G1 X96.93 Y126.629 E1.22438
G1 X97.784 Y125.823 E1.26344
G1 X98.743 Y125.218 E1.30115
G1 X99.273 Y124.958 E1.32079
G1 X99.816 Y124.655 E1.34147
G1 X99.824 Y115.785 E1.63649
G1 X99.905 Y114.82 E1.6687
G1 X100.043 Y114.112 E1.69269
G1 X100.419 Y112.926 E1.73407
G1 X100.786 Y112.139 E1.76295
G1 X101.363 Y111.21 E1.79932
G1 X101.976 Y110.453 E1.83172
G1 X102.669 Y109.778 E1.8639
G1 X103.427 Y109.194 E1.89572
G1 X104.227 Y108.712 E1.92679
G1 X104.895 Y108.398 E1.95134
G1 X106.116 Y107.92 E1.99495
G1 X107.142 Y107.488 E2.03198
G1 X108.011 Y107.059 E2.06421
G1 X108.911 Y106.548 E2.09863
G1 X109.787 Y105.979 E2.13338
G1 X110.563 Y105.41 E2.16538
G1 X111.318 Y104.784 E2.198
G1 X111.622 Y104.457 E2.21285
G1 X111.834 Y104.094 E2.22683
G1 X111.945 Y103.814 E2.23685
G1 X111.997 Y103.494 E2.24763
G1 X112.071 Y102.305 E2.28726
G1 X112.306 Y100.972 E2.33228
G1 X112.564 Y100.111 E2.36217
G1 X112.969 Y99.127 E2.39756
G1 X113.378 Y98.361 E2.42644
G1 X114.159 Y97.232 E2.4721
G1 X114.817 Y96.487 E2.50516
G1 X115.534 Y95.826 E2.5376
G1 X116.122 Y95.372 E2.56231
G1 X117.403 Y94.599 E2.61207
G1 X118.169 Y94.256 E2.63998
G1 X119.341 Y93.872 E2.681
G1 X119.977 Y93.729 E2.70268
G1 X121.473 Y93.567 E2.75273
G1 X122.384 Y93.58 E2.78304
G1 X123.535 Y93.717 E2.82159
G1 X124.326 Y93.895 E2.84856
G1 X125.534 Y94.305 E2.89098
G1 X126.466 Y94.747 E2.92529
G1 X127.491 Y95.358 E2.96498
G1 X127.854 Y95.486 E2.97778
G1 X128.131 Y95.528 E2.9871
G1 X128.389 Y95.539 E2.99569
G1 X130.356 Y95.555 E3.06112
G1 X130.984 Y95.617 E3.0821
G1 X132 Y95.923 E3.1174
G1 X132.867 Y96.387 E3.1501
G1 X133.675 Y97.049 E3.18485
G1 X134.307 Y97.818 E3.21795
G1 X134.832 Y98.793 E3.25478
G1 X135.116 Y99.784 E3.28907
G1 X135.185 Y100.735 E3.32078
G1 X135.169 Y106.249 E3.50418
G1 X135.109 Y106.865 E3.52477
G1 X134.791 Y107.928 E3.56167
G1 X134.262 Y108.878 E3.59784
G1 X133.668 Y109.545 E3.62754
G1 X132.95 Y110.182 E3.65947
G1 X131.949 Y110.717 E3.69722
G1 X130.931 Y111.01 E3.73245
G1 X130.137 Y111.075 E3.75895
G1 X128.466 Y111.08 E3.81452
G1 X128.122 Y111.098 E3.82598
G1 X127.84 Y111.169 E3.83565
G1 X127.548 Y111.276 E3.846
G1 X126.384 Y111.975 E3.89116
G1 X125.597 Y112.349 E3.92014
G1 X124.863 Y112.625 E3.94622
G1 X123.88 Y112.892 E3.9801
G1 X122.613 Y113.108 E4.02285
G1 X122.107 Y113.226 E4.04013
G1 X121.687 Y113.352 E4.05471
G1 X121.107 Y113.572 E4.07534
G1 X118.733 Y114.541 E4.16063
G1 X116.291 Y115.503 E4.24792
G1 X110.588 Y117.71 E4.45132
G1 X110.163 Y117.899 E4.46679
G1 X109.85 Y118.122 E4.47957
G1 X109.641 Y118.345 E4.48973
G1 X109.461 Y118.581 E4.49961
G1 X109.35 Y118.812 E4.50813
G1 X109.236 Y119.125 E4.51921
G1 X109.182 Y119.486 E4.53135
G1 X109.181 Y124.388 E4.69439
G1 X109.505 Y124.533 E4.7062
G1 X110.818 Y125.333 E4.75733
G1 X111.193 Y125.635 E4.77335
G1 X111.947 Y126.378 E4.80856
G1 X112.652 Y127.503 E4.85272
G1 X113.126 Y128.477 E4.88874
G1 X113.27 Y129.715 E4.9302
G1 X113.277 Y131.993 E5.00596
G1 X112.82 Y133.409 E5.05545
G1 X112.249 Y134.281 E5.09012
G1 X112.436 Y134.559 E5.10126
G1 X113.019 Y135.65 E5.14241
G1 X113.28 Y137.036 E5.18931
G1 X113.277 Y139.473 E5.27037
G1 X112.795 Y140.822 E5.31802
G1 X112.418 Y141.556 E5.34546
G1 X111.771 Y142.259 E5.37724
G1 X111.169 Y142.816 E5.40452
G1 X110.167 Y143.425 E5.44352
G1 X109.653 Y143.69 E5.46275
G1 X110.362 Y144.595 E5.50099
G1 X110.803 Y145.863 E5.54564
G1 X110.818 Y146.682 E5.57288
G1 X110.791 Y146.963 E5.58227
G1 X110.843 Y147.251 E5.59201
G1 X110.856 Y147.647 E5.60518
G1 X110.746 Y148.197 E5.62384
G1 X110.738 Y148.568 E5.63618
G1 X110.778 Y148.886 E5.64684
G1 X110.785 Y149.387 E5.66351
G1 X110.702 Y149.769 E5.67651
G1 X110.687 Y150.192 E5.69059
G1 X110.409 Y151.087 E5.72176
G1 X109.992 Y151.822 E5.74986
G1 X109.936 Y152.033 E5.75713
G1 X109.676 Y152.719 E5.78153
G1 X109.098 Y153.428 E5.81195
G1 X108.431 Y153.99 E5.84096
G1 X106.872 Y154.787 E5.8992
G1 X106.587 Y154.883 E5.9092
G0 F6000 X106.477 Y154.393
G1 F900 X105.052 Y154.563 E5.95693
G1 X103.404 Y154.524 E6.01176
G1 X102.392 Y154.366 E6.04582
G1 X100.865 Y153.584 E6.10289
G1 X100.266 Y153.095 E6.1286
G1 X99.726 Y152.417 E6.15743
G1 X99.504 Y151.806 E6.17905
G1 X99.451 Y151.587 E6.18655
G1 X99.057 Y150.896 E6.213
G1 X98.821 Y150.149 E6.23906
G1 X98.795 Y149.714 E6.25355
G1 X98.718 Y149.344 E6.26612
G1 X98.72 Y148.912 E6.28049
G1 X98.746 Y148.693 E6.28783
G1 X98.709 Y148.431 E6.29663
G1 X98.703 Y148.025 E6.31013
G1 X98.715 Y147.898 E6.31438
G1 X98.682 Y147.556 E6.3258
G1 X98.691 Y147.191 E6.33795
G1 X98.708 Y147.045 E6.34284
G1 X98.66 Y146.738 E6.35317
G1 X98.707 Y145.887 E6.38152
G1 X98.833 Y145.457 E6.39642
G1 X99.205 Y144.64 E6.42628
G1 X100.034 Y143.768 E6.4663
G1 X99.772 Y143.651 E6.47584
G1 X98.29 Y142.782 E6.53298
G1 X97.382 Y141.831 E6.57671
G1 X96.831 Y140.944 E6.61145
G1 X96.359 Y139.967 E6.64753
G1 X96.225 Y138.838 E6.68535
G1 X96.22 Y136.651 E6.75809
G1 X96.648 Y135.405 E6.80191
G1 X97.026 Y134.721 E6.8279
G1 X97.376 Y134.355 E6.84474
G1 X96.767 Y133.447 E6.88111
G1 X96.405 Y132.564 E6.91285
G1 X96.221 Y131.862 E6.93699
G1 X96.22 Y129.227 E7.02463
G1 X96.683 Y127.861 E7.0726
G1 X97.311 Y126.957 E7.10921
G1 X98.092 Y126.22 E7.14492
G1 X99.01 Y125.641 E7.18102
G1 X99.498 Y125.405 E7.19905
G1 X100.316 Y124.948 E7.23022
G1 X100.322 Y115.825 E7.53365
G1 X100.396 Y114.914 E7.56405
G1 X100.52 Y114.263 E7.58609
G1 X100.896 Y113.077 E7.62747
G1 X101.212 Y112.401 E7.65229
G1 X101.752 Y111.525 E7.68652
G1 X102.365 Y110.768 E7.71892
G1 X102.976 Y110.173 E7.74728
G1 X103.686 Y109.622 E7.77717
G1 X104.44 Y109.165 E7.8065
G1 X105.108 Y108.851 E7.83105
G1 X106.298 Y108.386 E7.87354
G1 X107.34 Y107.947 E7.91115
G1 X108.256 Y107.495 E7.94512
G1 X109.158 Y106.983 E7.97962
G1 X110.078 Y106.386 E8.0161
G1 X110.87 Y105.805 E8.04877
G1 X111.652 Y105.156 E8.08257
G1 X111.86 Y104.954 E8.09221
G1 X112.026 Y104.753 E8.10088
G1 X112.165 Y104.542 E8.10928
G1 X112.29 Y104.301 E8.11831
G1 X112.429 Y103.95 E8.13087
G1 X112.495 Y103.546 E8.14449
G1 X112.57 Y102.336 E8.18481
G1 X112.785 Y101.116 E8.22601
G1 X113.043 Y100.255 E8.25591
G1 X113.41 Y99.363 E8.28799
G1 X113.819 Y98.597 E8.31687
G1 X114.535 Y97.562 E8.35873
G1 X115.157 Y96.854 E8.39007
G1 X115.84 Y96.222 E8.42102
G1 X116.428 Y95.768 E8.44573
G1 X117.609 Y95.055 E8.49161
G1 X118.326 Y94.731 E8.51778
G1 X119.451 Y94.36 E8.55718
G1 X120.087 Y94.217 E8.57886
G1 X121.466 Y94.067 E8.625
G1 X122.377 Y94.08 E8.6553
G1 X123.425 Y94.205 E8.69041
G1 X124.216 Y94.383 E8.71737
G1 X125.372 Y94.778 E8.75801
G1 X126.21 Y95.177 E8.78888
G1 X127.274 Y95.811 E8.83007
G1 X127.732 Y95.973 E8.84623
G1 X128.09 Y96.027 E8.85827
G1 X128.367 Y96.039 E8.86749
G1 X130.307 Y96.053 E8.93202
G1 X130.887 Y96.11 E8.9514
G1 X131.808 Y96.388 E8.9834
G1 X132.588 Y96.805 E9.01282
G1 X133.323 Y97.407 E9.04442
G1 X133.889 Y98.096 E9.07407
G1 X134.365 Y98.98 E9.10747
G1 X134.621 Y99.872 E9.13833
G1 X134.685 Y100.734 E9.16708
G1 X134.671 Y106.201 E9.34892
G1 X134.616 Y106.769 E9.3679
G1 X134.327 Y107.733 E9.40137
G1 X133.852 Y108.586 E9.43384
G1 X133.336 Y109.171 E9.45979
G1 X132.661 Y109.77 E9.4898
G1 X131.76 Y110.251 E9.52377
G1 X130.841 Y110.516 E9.55558
G1 X130.136 Y110.575 E9.57911
G1 X128.459 Y110.58 E9.63489
G1 X128.043 Y110.602 E9.64875
G1 X127.691 Y110.691 E9.66082
G1 X127.335 Y110.821 E9.67343
G1 X126.169 Y111.523 E9.7187
G1 X125.382 Y111.897 E9.74768
G1 X124.732 Y112.142 E9.77078
G1 X123.749 Y112.409 E9.80466
G1 X122.515 Y112.618 E9.84629
G1 X121.975 Y112.743 E9.86472
G1 X121.524 Y112.879 E9.88039
G1 X120.93 Y113.104 E9.90152
G1 X118.55 Y114.076 E9.98702
G1 X116.111 Y115.037 E10.07421
G1 X110.385 Y117.253 E10.27843
G1 X109.912 Y117.463 E10.29564
G1 X109.523 Y117.741 E10.31154
G1 X109.256 Y118.025 E10.32451
G1 X109.032 Y118.318 E10.33677
G1 X108.889 Y118.616 E10.34777
G1 X108.748 Y119.005 E10.36153
G1 X108.697 Y119.347 E10.37303
G1 X108.682 Y119.615 E10.38196
G1 X108.681 Y124.717 E10.55165
G1 X109.246 Y124.961 E10.57212
G1 X110.507 Y125.725 E10.62116
G1 X110.842 Y125.991 E10.63539
G1 X111.555 Y126.694 E10.66869
G1 X112.202 Y127.722 E10.70909
G1 X112.639 Y128.62 E10.74231
G1 X112.773 Y129.773 E10.78091
G1 X112.777 Y131.914 E10.85212
G1 X112.364 Y133.193 E10.89683
G1 X111.75 Y134.131 E10.93411
G1 X111.631 Y134.263 E10.94002
G1 X111.995 Y134.795 E10.96146
G1 X112.543 Y135.82 E11.00012
G1 X112.78 Y137.08 E11.04276
G1 X112.777 Y139.387 E11.1195
G1 X112.35 Y140.593 E11.16205
G1 X112.002 Y141.27 E11.18737
G1 X111.431 Y141.892 E11.21545
G1 X110.865 Y142.416 E11.2411
G1 X109.943 Y142.978 E11.27702
G1 X109.598 Y143.151 E11.28985
G1 X108.75 Y143.61 E11.32192
G1 X109.344 Y144.107 E11.34768
G1 X109.918 Y144.838 E11.3786
G1 X110.304 Y145.95 E11.41775
G1 X110.32 Y146.634 E11.4405
G1 X110.286 Y146.99 E11.4524
G1 X110.343 Y147.267 E11.4618
G1 X110.354 Y147.608 E11.47315
G1 X110.247 Y148.145 E11.49136
G1 X110.237 Y148.593 E11.50627
G1 X110.278 Y148.893 E11.51634
G1 X110.284 Y149.339 E11.53117
G1 X110.203 Y149.71 E11.5438
G1 X110.189 Y150.107 E11.55702
G1 X109.946 Y150.89 E11.58428
G1 X109.525 Y151.633 E11.61269
G1 X109.468 Y151.856 E11.62034
G1 X109.236 Y152.468 E11.64211
G1 X108.74 Y153.076 E11.66821
G1 X108.154 Y153.57 E11.6937
G1 X106.644 Y154.342 E11.75011
G1 X106.477 Y154.393 E11.75592
G0 F6000 X106.416 Y153.897
G1 F900 X105.062 Y154.063 E11.80129
G1 X103.481 Y154.03 E11.85388
G1 X102.549 Y153.884 E11.88526
G1 X101.138 Y153.162 E11.93798
G1 X100.626 Y152.744 E11.95996
G1 X100.168 Y152.169 E11.98441
G1 X99.974 Y151.635 E12.00331
G1 X99.923 Y151.405 E12.01114
G1 X99.519 Y150.697 E12.03825
G1 X99.316 Y150.055 E12.06065
G1 X99.292 Y149.648 E12.07421
G1 X99.218 Y149.295 E12.08621
G1 X99.22 Y148.915 E12.09884
G1 X99.251 Y148.69 E12.1064
G1 X99.209 Y148.419 E12.11552
G1 X99.201 Y148.073 E12.12703
G1 X99.218 Y147.898 E12.13288
G1 X99.182 Y147.568 E12.14392
G1 X99.191 Y147.203 E12.15606
G1 X99.214 Y147.038 E12.1616
G1 X99.162 Y146.711 E12.17262
G1 X99.203 Y145.973 E12.1972
G1 X99.288 Y145.664 E12.20786
G1 X99.625 Y144.924 E12.2349
G1 X100.32 Y144.193 E12.26845
G1 X100.817 Y143.934 E12.28709
G1 X100.817 Y143.494 E12.30173
G1 X100.499 Y143.423 E12.31256
G1 X100.025 Y143.22 E12.32971
G1 X98.604 Y142.387 E12.3845
G1 X97.78 Y141.524 E12.42419
G1 X97.256 Y140.68 E12.45723
G1 X96.845 Y139.824 E12.48881
G1 X96.725 Y138.837 E12.52188
G1 X96.72 Y136.735 E12.59179
G1 X97.107 Y135.609 E12.63139
G1 X97.433 Y135.019 E12.65381
G1 X98.05 Y134.374 E12.6835
G1 X97.838 Y134.147 E12.69383
G1 X97.213 Y133.215 E12.73115
G1 X96.868 Y132.374 E12.76139
G1 X96.721 Y131.799 E12.78113
G1 X96.72 Y129.311 E12.86388
G1 X97.135 Y128.087 E12.90687
G1 X97.692 Y127.285 E12.93934
G1 X98.401 Y126.616 E12.97177
G1 X99.228 Y126.091 E13.00435
G1 X99.726 Y125.85 E13.02275
G1 X100.503 Y125.41 E13.05245
G1 X100.816 Y125.301 E13.06347
G1 X100.82 Y115.864 E13.37735
G1 X100.888 Y115.005 E13.40601
G1 X100.997 Y114.413 E13.42603
G1 X101.35 Y113.287 E13.46527
G1 X101.639 Y112.662 E13.48818
G1 X102.141 Y111.84 E13.52021
G1 X102.754 Y111.083 E13.55261
G1 X103.324 Y110.532 E13.57898
G1 X103.947 Y110.049 E13.6052
G1 X104.653 Y109.618 E13.63271
G1 X105.321 Y109.304 E13.65726
G1 X106.48 Y108.852 E13.69863
G1 X107.538 Y108.406 E13.73682
G1 X108.501 Y107.931 E13.77254
G1 X109.405 Y107.418 E13.80711
G1 X110.36 Y106.798 E13.84498
G1 X111.185 Y106.194 E13.87899
G1 X111.987 Y105.528 E13.91366
G1 X112.228 Y105.293 E13.92485
G1 X112.431 Y105.048 E13.93544
G1 X112.598 Y104.794 E13.94555
G1 X112.743 Y104.515 E13.956
G1 X112.86 Y104.218 E13.96662
G1 X112.939 Y103.935 E13.97639
G1 X112.992 Y103.606 E13.98748
G1 X113.069 Y102.367 E14.02877
G1 X113.264 Y101.26 E14.06615
G1 X113.522 Y100.399 E14.09605
G1 X113.851 Y99.599 E14.12482
G1 X114.26 Y98.833 E14.1537
G1 X114.911 Y97.891 E14.19178
G1 X115.497 Y97.221 E14.22139
G1 X116.18 Y96.589 E14.25234
G1 X116.733 Y96.164 E14.27554
G1 X117.815 Y95.511 E14.31757
G1 X118.532 Y95.187 E14.34374
G1 X119.561 Y94.848 E14.37977
G1 X120.197 Y94.705 E14.40146
G1 X121.459 Y94.567 E14.44368
G1 X122.37 Y94.58 E14.47398
G1 X123.315 Y94.693 E14.50564
G1 X124.106 Y94.871 E14.5326
G1 X125.158 Y95.23 E14.56958
G1 X125.954 Y95.607 E14.59887
G1 X126.937 Y96.192 E14.63692
G1 X127.182 Y96.308 E14.64593
G1 X127.462 Y96.408 E14.65582
G1 X127.744 Y96.48 E14.6655
G1 X128.051 Y96.526 E14.67583
G1 X128.345 Y96.539 E14.68561
G1 X130.258 Y96.551 E14.74924
G1 X130.789 Y96.603 E14.76699
G1 X131.617 Y96.853 E14.79575
G1 X132.309 Y97.223 E14.82185
G1 X132.971 Y97.765 E14.85031
G1 X133.471 Y98.374 E14.87652
G1 X133.898 Y99.167 E14.90647
G1 X134.126 Y99.96 E14.93392
G1 X134.185 Y100.733 E14.9597
G1 X134.173 Y106.152 E15.13994
G1 X134.122 Y106.675 E15.15742
G1 X133.864 Y107.537 E15.18734
G1 X133.442 Y108.295 E15.2162
G1 X132.961 Y108.84 E15.24038
G1 X132.376 Y109.355 E15.2663
G1 X131.569 Y109.786 E15.29673
G1 X130.751 Y110.022 E15.32504
G1 X130.135 Y110.075 E15.34561
G1 X128.452 Y110.08 E15.40159
G1 X128.11 Y110.098 E15.41298
G1 X127.829 Y110.14 E15.42243
G1 X127.546 Y110.212 E15.43214
G1 X127.243 Y110.322 E15.44286
G1 X127 Y110.44 E15.45184
G1 X125.953 Y111.072 E15.49252
G1 X125.204 Y111.43 E15.52013
G1 X124.601 Y111.659 E15.54159
G1 X123.618 Y111.926 E15.57546
G1 X122.417 Y112.127 E15.61597
G1 X121.852 Y112.258 E15.63526
G1 X121.351 Y112.41 E15.65267
G1 X120.753 Y112.636 E15.67393
G1 X118.367 Y113.611 E15.75966
G1 X115.931 Y114.571 E15.84675
G1 X110.182 Y116.796 E16.05178
G1 X109.793 Y116.969 E16.06594
G1 X109.543 Y117.112 E16.07552
G1 X109.315 Y117.275 E16.08484
G1 X109.081 Y117.481 E16.09521
G1 X108.873 Y117.702 E16.1053
G1 X108.691 Y117.941 E16.1153
G1 X108.549 Y118.169 E16.12423
G1 X108.427 Y118.425 E16.13366
G1 X108.262 Y118.88 E16.14976
G1 X108.199 Y119.299 E16.16385
G1 X108.182 Y119.605 E16.17405
G1 X108.181 Y125.109 E16.35711
G1 X108.491 Y125.179 E16.36768
G1 X109.047 Y125.42 E16.38783
G1 X110.196 Y126.117 E16.43253
G1 X110.531 Y126.383 E16.44676
G1 X111.162 Y127.008 E16.4763
G1 X111.752 Y127.941 E16.51302
G1 X112.152 Y128.763 E16.54342
G1 X112.276 Y129.831 E16.57918
G1 X112.277 Y131.835 E16.64583
G1 X111.908 Y132.977 E16.68575
G1 X111.332 Y133.857 E16.72073
G1 X110.941 Y134.224 E16.73857
G1 X111.19 Y134.504 E16.75103
