;FLAVOR:Marlin
;TIME:9928
;Filament used: 9.82175m
;Layer height: 0.35
;MINX:94.204
;MINY:88.338
;MINZ:0.2
;MAXX:140.797
;MAXY:147.26
;MAXZ:61.1
;TARGET_MACHINE.NAME:Creality Ender-3
;Generated with Cura_SteamEngine 5.9.0
M140 S75
M105
M190 S75
M104 S240
M105
M109 S240
M82 ;absolute extrusion mode
; Ender 3 Custom Start G-code
G92 E0 ; Reset Extruder
G28 ; Home all axes
G1 Z2.0 F3000 ; Move Z Axis up little to prevent scratching of Heat Bed
G1 X0.1 Y20 Z0.3 F5000.0 ; Move to start position
G1 X0.1 Y200.0 Z0.3 F1500.0 E15 ; Draw the first line
G1 X0.4 Y200.0 Z0.3 F5000.0 ; Move to side a little
G1 X0.4 Y20 Z0.3 F1500.0 E30 ; Draw the second line
G92 E0 ; Reset Extruder
G1 Z2.0 F3000 ; Move Z Axis up little to prevent scratching of Heat Bed
G1 X5 Y20 Z0.3 F5000.0 ; Move over to prevent blob squish
G92 E0
G92 E0
G1 F2700 E-5
;LAYER_COUNT:175
;LAYER:0
M107
G0 F6000 X137.571 Y147.26 Z0.2
;TYPE:SKIRT
G1 F2700 E0
G1 F900 X97.629 Y147.26 E1.32848
G1 X96.702 Y147.06 E1.36002
G1 X96.415 Y146.951 E1.37023
G1 X95.634 Y146.443 E1.40122
G1 X95.195 Y146.061 E1.42057
G1 X94.607 Y145.229 E1.45446
G1 X94.339 Y144.63 E1.47628
G1 X94.204 Y144.081 E1.49509
G1 X94.225 Y94.152 E3.15573
G1 X94.327 Y93.348 E3.18269
G1 X94.542 Y92.473 E3.21266
G1 X95.05 Y91.396 E3.25226
G1 X95.695 Y90.488 E3.28931
G1 X96.483 Y89.752 E3.32517
G1 X97.209 Y89.22 E3.35511
G1 X98.336 Y88.672 E3.39679
G1 X99.509 Y88.414 E3.43673
G1 X100.416 Y88.338 E3.46701
G1 X134.981 Y88.359 E4.61664
G1 X135.727 Y88.451 E4.64164
G1 X136.669 Y88.68 E4.67389
G1 X137.732 Y89.179 E4.71294
G1 X138.644 Y89.825 E4.75012
G1 X139.387 Y90.623 E4.78638
G1 X139.955 Y91.397 E4.81831
G1 X140.445 Y92.448 E4.85688
G1 X140.717 Y93.5 E4.89302
G1 X140.797 Y94.549 E4.92801
G1 X140.796 Y144.103 E6.57618
G1 X140.441 Y145.116 E6.61189
G1 X139.982 Y145.881 E6.64156
G1 X139.24 Y146.572 E6.67528
G1 X138.444 Y147.024 E6.70573
G1 X137.571 Y147.26 E6.73581
G0 F6000 X138.252 Y146.558
G1 F900 X137.504 Y146.76 E6.76158
G1 X97.683 Y146.76 E8.08603
G1 X96.807 Y146.571 E8.11583
G1 X96.644 Y146.504 E8.1217
G1 X95.962 Y146.065 E8.14867
G1 X95.567 Y145.722 E8.16607
G1 X95.042 Y144.979 E8.19633
G1 X94.815 Y144.471 E8.21484
G1 X94.704 Y144.019 E8.23032
G1 X94.721 Y94.213 E9.88687
G1 X94.813 Y93.467 E9.91187
G1 X95.016 Y92.64 E9.94019
G1 X95.484 Y91.649 E9.97665
G1 X96.073 Y90.819 E10.0105
G1 X96.779 Y90.155 E10.04273
G1 X97.466 Y89.651 E10.07107
G1 X98.503 Y89.147 E10.10942
G1 X99.552 Y88.912 E10.14517
G1 X100.416 Y88.838 E10.17402
G1 X134.922 Y88.856 E11.32169
G1 X135.609 Y88.937 E11.3447
G1 X136.502 Y89.154 E11.37526
G1 X137.48 Y89.613 E11.4112
G1 X138.312 Y90.203 E11.44512
G1 X139.021 Y90.964 E11.47971
G1 X139.521 Y91.651 E11.50798
G1 X139.973 Y92.619 E11.54351
G1 X140.222 Y93.584 E11.57666
G1 X140.297 Y94.549 E11.60885
G1 X140.296 Y144.018 E13.25419
G1 X139.987 Y144.9 E13.28528
G1 X139.588 Y145.564 E13.31104
G1 X138.942 Y146.166 E13.34041
G1 X138.252 Y146.558 E13.36681
G0 F6000 X138.06 Y146.092
G1 F900 X137.437 Y146.26 E13.38827
G1 X97.737 Y146.26 E14.7087
G1 X96.912 Y146.082 E14.73677
G1 X96.29 Y145.687 E14.76127
G1 X95.937 Y145.381 E14.77681
G1 X95.481 Y144.735 E14.80311
G1 X95.29 Y144.307 E14.8187
G1 X95.204 Y143.957 E14.83069
G1 X95.218 Y94.272 E16.48322
G1 X95.299 Y93.586 E16.50619
G1 X95.491 Y92.805 E16.53294
G1 X95.916 Y91.904 E16.56608
G1 X96.451 Y91.15 E16.59682
G1 X97.122 Y90.519 E16.62746
G1 X97.723 Y90.082 E16.65218
G1 X98.67 Y89.622 E16.68719
G1 X99.596 Y89.41 E16.71879
G1 X100.416 Y89.338 E16.74617
G1 X134.863 Y89.353 E17.89188
G1 X135.55 Y89.434 E17.91489
G1 X136.333 Y89.627 E17.94171
G1 X137.228 Y90.047 E17.97459
G1 X137.983 Y90.583 E18.00539
G1 X138.617 Y91.258 E18.03619
G1 X139.087 Y91.904 E18.06276
G1 X139.501 Y92.79 E18.09529
G1 X139.728 Y93.668 E18.12545
G1 X139.797 Y94.549 E18.15484
G1 X139.796 Y143.933 E19.79736
G1 X139.532 Y144.688 E19.82396
G1 X139.197 Y145.245 E19.84558
G1 X138.644 Y145.76 E19.87071
G1 X138.06 Y146.092 E19.89306
G0 F6000 X137.868 Y145.626
G1 F900 X137.37 Y145.76 E19.91021
G1 X97.791 Y145.76 E21.22661
G1 X97.104 Y145.612 E21.24999
G1 X96.558 Y145.265 E21.2715
G1 X96.309 Y145.042 E21.28262
G1 X95.92 Y144.491 E21.30505
G1 X95.747 Y144.103 E21.31918
G1 X95.704 Y143.899 E21.32612
G1 X95.715 Y94.331 E22.97476
G1 X95.796 Y93.645 E22.99773
G1 X95.964 Y92.974 E23.02074
G1 X96.35 Y92.157 E23.05079
G1 X96.829 Y91.481 E23.07835
G1 X97.465 Y90.883 E23.10738
G1 X97.982 Y90.512 E23.12855
G1 X98.837 Y90.097 E23.16016
G1 X99.641 Y89.908 E23.18763
G1 X100.416 Y89.838 E23.21351
G1 X134.804 Y89.85 E24.35726
G1 X135.491 Y89.931 E24.38027
G1 X136.165 Y90.101 E24.40339
G1 X136.976 Y90.481 E24.43317
G1 X137.652 Y90.961 E24.46075
G1 X138.252 Y91.6 E24.4899
G1 X138.654 Y92.159 E24.5128
G1 X139.028 Y92.96 E24.54221
G1 X139.234 Y93.754 E24.56949
G1 X139.297 Y94.549 E24.59601
G1 X139.296 Y143.848 E26.23571
G1 X139.078 Y144.472 E26.25769
G1 X138.804 Y144.928 E26.27538
G1 X138.346 Y145.354 E26.29619
G1 X137.868 Y145.626 E26.31448
G0 F6000 X137.677 Y145.16
G1 F900 X137.304 Y145.26 E26.32732
G1 X97.845 Y145.26 E27.63974
G1 X97.296 Y145.142 E27.65841
G1 X96.826 Y144.843 E27.67694
G1 X96.686 Y144.709 E27.68339
G1 X96.358 Y144.244 E27.70231
G1 X96.204 Y143.899 E27.71488
G1 X96.212 Y94.386 E29.36169
G1 X96.281 Y93.767 E29.3824
G1 X96.438 Y93.141 E29.40387
G1 X96.782 Y92.412 E29.43068
G1 X97.208 Y91.811 E29.45518
G1 X97.757 Y91.289 E29.48038
G1 X98.239 Y90.943 E29.50011
G1 X99.004 Y90.572 E29.52839
G1 X99.756 Y90.395 E29.55408
G1 X100.416 Y90.338 E29.57612
G1 X134.749 Y90.347 E30.71804
G1 X135.368 Y90.416 E30.73875
G1 X135.997 Y90.575 E30.76033
G1 X136.721 Y90.914 E30.78692
G1 X137.323 Y91.342 E30.81149
G1 X137.846 Y91.892 E30.83673
G1 X138.22 Y92.413 E30.85806
G1 X138.555 Y93.13 E30.88439
G1 X138.74 Y93.84 E30.90879
G1 X138.797 Y94.549 E30.93245
G1 X138.796 Y143.763 E32.56931
G1 X138.623 Y144.258 E32.58675
G1 X138.411 Y144.612 E32.60047
G1 X138.049 Y144.948 E32.6169
G1 X137.677 Y145.16 E32.63114
G0 F6000 X137.486 Y144.694
G1 F900 X137.238 Y144.76 E32.63968
G1 X97.9 Y144.76 E33.94807
G1 X97.488 Y144.671 E33.96208
G1 X97.094 Y144.421 E33.9776
G1 X96.796 Y143.999 E33.99479
G1 X96.704 Y143.792 E34.00232
G1 X96.709 Y94.438 E35.64384
G1 X96.766 Y93.889 E35.6622
G1 X96.912 Y93.308 E35.68213
G1 X97.214 Y92.667 E35.70569
G1 X97.588 Y92.14 E35.72719
G1 X98.049 Y91.695 E35.7485
G1 X98.496 Y91.374 E35.7668
G1 X99.171 Y91.047 E35.79175
G1 X99.801 Y90.893 E35.81332
G1 X100.416 Y90.838 E35.83385
G1 X134.697 Y90.844 E36.97405
G1 X135.246 Y90.901 E36.9924
G1 X135.828 Y91.048 E37.01237
G1 X136.47 Y91.349 E37.03595
G1 X136.993 Y91.721 E37.0573
G1 X137.44 Y92.184 E37.0787
G1 X137.787 Y92.667 E37.09848
G1 X138.083 Y93.3 E37.12173
G1 X138.246 Y93.926 E37.14324
G1 X138.297 Y94.549 E37.16403
G1 X138.296 Y143.678 E38.79807
G1 X138.151 Y144.093 E38.81269
G1 X138.019 Y144.294 E38.82069
G1 X137.752 Y144.542 E38.83281
G1 X137.486 Y144.694 E38.843
G0 F6000 X137.257 Y143.644
G1 F900 X137.125 Y143.76 E38.84884
G1 X97.954 Y143.76 E40.15168
G1 X97.82 Y143.721 E40.15632
G1 X97.704 Y143.589 E40.16216
G1 X97.705 Y94.53 E41.79387
G1 X97.749 Y94.057 E41.80967
G1 X97.859 Y93.645 E41.82385
G1 X98.08 Y93.174 E41.84116
G1 X98.351 Y92.792 E41.85674
G1 X98.691 Y92.458 E41.87259
G1 X99.039 Y92.215 E41.88671
G1 X99.509 Y91.994 E41.90398
G1 X99.963 Y91.877 E41.91957
G1 X100.416 Y91.838 E41.9347
G1 X134.605 Y91.84 E43.07183
G1 X135.078 Y91.884 E43.08763
G1 X135.491 Y91.994 E43.10184
G1 X135.961 Y92.215 E43.11912
G1 X136.343 Y92.486 E43.13469
G1 X136.677 Y92.826 E43.15055
G1 X136.92 Y93.174 E43.16466
G1 X137.139 Y93.641 E43.18182
G1 X137.258 Y94.098 E43.19753
G1 X137.297 Y94.549 E43.21258
G1 X137.296 Y143.51 E44.84103
G1 X137.257 Y143.644 E44.84567
G0 F6000 X137.455 Y144.136
G1 F900 X137.238 Y144.26 E44.85399
G1 X97.954 Y144.26 E46.16058
G1 X97.68 Y144.201 E46.1699
G1 X97.444 Y144.051 E46.1792
G1 X97.204 Y143.711 E46.19304
G1 X97.207 Y94.484 E47.83034
G1 X97.251 Y94.011 E47.84614
G1 X97.386 Y93.475 E47.86452
G1 X97.646 Y92.922 E47.88485
G1 X97.969 Y92.467 E47.90341
G1 X98.341 Y92.101 E47.92076
G1 X98.753 Y91.805 E47.93764
G1 X99.34 Y91.521 E47.95932
G1 X99.92 Y91.379 E47.97918
G1 X100.416 Y91.338 E47.99574
G1 X134.651 Y91.342 E49.1344
G1 X135.124 Y91.386 E49.1502
G1 X135.659 Y91.521 E49.16855
G1 X136.215 Y91.782 E49.18898
G1 X136.668 Y92.104 E49.20747
G1 X137.034 Y92.476 E49.22482
G1 X137.354 Y92.921 E49.24305
G1 X137.611 Y93.47 E49.26321
G1 X137.752 Y94.012 E49.28184
G1 X137.797 Y94.549 E49.29976
G1 X137.796 Y143.593 E50.93097
G1 X137.679 Y143.928 E50.94278
G1 X137.455 Y144.136 E50.95294
G1 F2700 E45.95294
;MESH:Body19.stl
G0 F6000 X136.522 Y142.986
G0 X117.5 Y141.758
;TYPE:WALL-INNER
G1 F2700 E50.95294
G1 F900 X135.294 Y141.758 E51.54477
G1 X135.294 Y94.474 E53.11745
G1 X135.192 Y94.191 E53.12745
G1 X135.044 Y94.012 E53.13518
G1 X134.829 Y93.888 E53.14343
G1 X134.512 Y93.838 E53.15411
G1 X126.722 Y93.838 E53.4132
G1 F882.4 X126.189 Y93.849 E53.43129
G1 F885.8 X125.652 Y93.835 E53.44944
G1 F882.4 X125.038 Y93.851 E53.47028
G1 F875.5 X124.578 Y93.838 E53.48601
G1 F900 X100.335 Y93.838 E54.29234
G1 X100.062 Y93.937 E54.302
G1 X99.88 Y94.088 E54.30986
G1 X99.751 Y94.31 E54.3184
G1 X99.702 Y94.613 E54.32861
G1 X99.702 Y141.758 E55.89666
G1 X117.5 Y141.758 E56.48862
G0 F6000 X117.5 Y142.258
G1 F900 X135.794 Y142.258 E57.09708
G1 X135.794 Y94.598 E58.68226
G1 X135.772 Y94.341 E58.69084
G1 X135.628 Y93.941 E58.70498
G1 X135.366 Y93.627 E58.71858
G1 X135.191 Y93.504 E58.7257
G1 X134.791 Y93.36 E58.73984
G1 X134.534 Y93.338 E58.74842
G1 X100.462 Y93.338 E59.88166
G1 X100.204 Y93.36 E59.89027
G1 X99.811 Y93.503 E59.90418
G1 X99.495 Y93.766 E59.91785
G1 X99.237 Y94.209 E59.9349
G1 X99.202 Y94.591 E59.94766
G1 X99.202 Y142.258 E61.53307
G1 X117.5 Y142.258 E62.14167
G0 F6000 X117.5 Y142.758
G1 F900 X136.294 Y142.758 E62.76676
G1 X136.294 Y94.577 E64.36926
G1 X136.266 Y94.254 E64.38005
G1 X136.188 Y93.961 E64.39013
G1 X136.063 Y93.691 E64.40003
G1 X135.89 Y93.444 E64.41006
G1 X135.688 Y93.242 E64.41956
G1 X135.441 Y93.069 E64.42959
G1 X135.171 Y92.944 E64.43948
G1 X134.878 Y92.866 E64.44957
G1 X134.555 Y92.838 E64.46035
G1 X100.441 Y92.838 E65.59499
G1 X100.118 Y92.866 E65.60577
G1 X99.826 Y92.944 E65.61582
G1 X99.561 Y93.068 E65.62556
G1 X99.312 Y93.242 E65.63566
G1 X99.11 Y93.444 E65.64516
G1 X98.936 Y93.694 E65.65529
G1 X98.808 Y93.964 E65.66523
G1 X98.73 Y94.255 E65.67525
G1 X98.702 Y94.569 E65.68574
G1 X98.702 Y142.758 E67.28851
G1 X117.5 Y142.758 E67.91373
G1 F2700 E62.91373
G0 F6000 X117.5 Y142.4
G0 X135.072 Y141.536
G0 X135.046 Y94.375
G0 X134.835 Y94.123
G0 X126.722 Y94.049
G0 X126.15 Y94.105
G0 X128.636 Y97.217
G0 X128.304 Y98.487
G0 X129.482 Y103.286
G0 X128.299 Y104.899
G0 X127.354 Y108.123
G0 X125.647 Y109.063
G1 F2700 E67.91373
G1 F900 X124.96 Y108.97 E67.93679
G1 X124.485 Y108.788 E67.95371
G1 X124.199 Y108.64 E67.96442
G1 X123.771 Y108.321 E67.98217
G1 X123.591 Y108.131 E67.99088
G1 X123.242 Y107.666 E68.01022
G1 X123.01 Y107.113 E68.03016
G1 X122.93 Y106.781 E68.04152
G1 X122.884 Y106.434 E68.05316
G1 X122.879 Y106.136 E68.06308
G1 X122.95 Y105.662 E68.07902
G1 X123.049 Y105.339 E68.09025
G1 X123.272 Y104.83 E68.10874
G1 X123.066 Y104.665 E68.11751
G1 X122.691 Y104.287 E68.13522
G1 X122.509 Y104.07 E68.14464
G1 X122.084 Y103.402 E68.17098
G1 X121.798 Y102.562 E68.20049
G1 X121.699 Y101.696 E68.22948
G1 X121.786 Y100.882 E68.25671
G1 X121.86 Y100.625 E68.2656
G1 X122.066 Y100.037 E68.28633
G1 X122.191 Y99.808 E68.295
G1 X122.511 Y99.303 E68.31489
G1 X122.698 Y99.082 E68.32452
G1 X123.136 Y98.645 E68.3451
G1 X123.273 Y98.548 E68.35068
G1 X122.971 Y97.858 E68.37573
G1 X122.884 Y97.258 E68.3959
G1 X122.894 Y96.863 E68.40904
G1 X122.929 Y96.599 E68.4179
G1 X123.049 Y96.159 E68.43306
G1 X123.153 Y95.911 E68.44201
G1 X123.371 Y95.533 E68.45652
G1 X123.531 Y95.321 E68.46536
G1 X123.873 Y94.979 E68.48144
G1 X124.085 Y94.819 E68.49028
G1 X124.462 Y94.602 E68.50474
G1 X124.711 Y94.498 E68.51372
G1 F875.5 X125.083 Y94.375 E68.52712
G1 F873.8 X125.415 Y94.34 E68.53855
G1 F891.1 X125.749 Y94.325 E68.54978
G1 F875.5 X126.154 Y94.368 E68.56371
G1 F882.4 X126.589 Y94.498 E68.57911
G1 F900 X126.838 Y94.602 E68.58809
G1 X127.215 Y94.819 E68.60255
G1 X127.427 Y94.979 E68.61139
G1 X127.757 Y95.304 E68.62679
G1 X127.92 Y95.517 E68.63571
G1 X128.156 Y95.924 E68.65136
G1 X128.256 Y96.168 E68.66013
G1 X128.371 Y96.599 E68.67497
G1 X128.407 Y96.866 E68.68393
G1 X128.424 Y97.207 E68.69529
G1 X128.337 Y97.809 E68.71552
G1 X128.117 Y98.372 E68.73562
G1 X128.014 Y98.539 E68.74215
G1 X128.172 Y98.651 E68.74859
G1 X128.73 Y99.211 E68.77488
G1 X129.106 Y99.798 E68.79807
G1 X129.28 Y100.157 E68.81134
G1 X129.444 Y100.625 E68.82783
G1 X129.533 Y101.016 E68.84117
G1 X129.597 Y101.616 E68.86124
G1 X129.585 Y101.876 E68.86989
G1 X129.516 Y102.475 E68.88995
G1 X129.445 Y102.747 E68.8993
G1 X129.282 Y103.219 E68.91591
G1 X129.102 Y103.589 E68.92959
G1 X128.792 Y104.068 E68.94857
G1 X128.609 Y104.287 E68.95806
G1 X128.249 Y104.651 E68.97509
G1 X128.031 Y104.828 E68.98443
G1 X128.331 Y105.522 E69.00958
G1 X128.412 Y106.087 E69.02856
G1 X128.425 Y106.377 E69.03822
G1 X128.338 Y107.009 E69.05943
G1 X128.156 Y107.452 E69.07536
G1 X128.016 Y107.737 E69.08592
G1 X127.664 Y108.192 E69.10506
G1 X127.443 Y108.385 E69.11482
G1 X127.031 Y108.692 E69.13191
G1 X126.395 Y108.959 E69.15485
G1 X125.647 Y109.063 E69.17997
G0 F6000 X125.649 Y108.559
G1 F900 X125.064 Y108.481 E69.19959
G1 X124.511 Y108.257 E69.21944
G1 X124.032 Y107.886 E69.23959
G1 X123.679 Y107.417 E69.25911
G1 X123.45 Y106.873 E69.27875
G1 X123.369 Y106.29 E69.29832
G1 X123.448 Y105.698 E69.31819
G1 X123.686 Y105.127 E69.33876
G1 X124.004 Y104.704 E69.35636
G1 X123.621 Y104.467 E69.37134
G1 X123.412 Y104.305 E69.38014
G1 X122.958 Y103.846 E69.40161
G1 X122.547 Y103.196 E69.42719
G1 X122.281 Y102.416 E69.4546
G1 X122.201 Y101.691 E69.47886
G1 X122.286 Y100.916 E69.50479
G1 X122.563 Y100.156 E69.5317
G1 X122.961 Y99.525 E69.55651
G1 X123.526 Y98.973 E69.58278
G1 X124.004 Y98.673 E69.60155
G1 X123.685 Y98.246 E69.61928
G1 X123.45 Y97.686 E69.63948
G1 X123.382 Y97.213 E69.65537
G1 X123.389 Y96.931 E69.66475
G1 X123.425 Y96.667 E69.67362
G1 X123.511 Y96.352 E69.68448
G1 X123.615 Y96.104 E69.69342
G1 X123.77 Y95.835 E69.70375
G1 X123.93 Y95.623 E69.71258
G1 X124.174 Y95.378 E69.72408
G1 X124.386 Y95.218 E69.73291
G1 X124.656 Y95.063 E69.74327
G1 X124.904 Y94.959 E69.75221
G1 X125.172 Y94.88 E69.76151
G1 X125.652 Y94.813 E69.77763
G1 X126.084 Y94.873 E69.79213
G1 X126.396 Y94.959 E69.8029
G1 X126.644 Y95.063 E69.81184
G1 X126.914 Y95.218 E69.8222
G1 X127.126 Y95.378 E69.83103
G1 X127.361 Y95.61 E69.84201
G1 X127.525 Y95.823 E69.85095
G1 X127.693 Y96.114 E69.86213
G1 X127.793 Y96.358 E69.8709
G1 X127.875 Y96.665 E69.88147
G1 X127.93 Y97.078 E69.89533
G1 X127.851 Y97.685 E69.91569
G1 X127.616 Y98.255 E69.93619
G1 X127.29 Y98.668 E69.95369
G1 X127.808 Y98.994 E69.97405
G1 X128.356 Y99.552 E70.00006
G1 X128.684 Y100.066 E70.02034
G1 X128.808 Y100.322 E70.0298
G1 X128.972 Y100.79 E70.0463
G1 X129.035 Y101.07 E70.05584
G1 X129.098 Y101.726 E70.07776
G1 X129.016 Y102.459 E70.10229
G1 X128.809 Y103.055 E70.12328
G1 X128.681 Y103.319 E70.13304
G1 X128.333 Y103.847 E70.15407
G1 X127.807 Y104.389 E70.17919
G1 X127.296 Y104.704 E70.19916
G1 X127.617 Y105.123 E70.21671
G1 X127.851 Y105.693 E70.2372
G1 X127.935 Y106.281 E70.25696
G1 X127.858 Y106.835 E70.27556
G1 X127.636 Y107.41 E70.29606
G1 X127.257 Y107.899 E70.31664
G1 X126.779 Y108.258 E70.33652
G1 X126.232 Y108.479 E70.35615
G1 X125.649 Y108.559 E70.37572
G0 F6000 X125.655 Y108.056
G1 F900 X125.191 Y107.994 E70.39129
G1 X124.765 Y107.822 E70.40657
G1 X124.389 Y107.532 E70.42236
G1 X124.118 Y107.164 E70.43756
G1 X123.934 Y106.738 E70.453
G1 X123.872 Y106.287 E70.46814
G1 X123.934 Y105.824 E70.48367
G1 X124.122 Y105.377 E70.4998
G1 X124.393 Y105.03 E70.51445
G1 F898.2 X124.756 Y104.743 E70.52987
G1 F896.4 X125.094 Y104.6 E70.54212
G1 F898.2 X124.366 Y104.34 E70.56789
G1 F900 X123.808 Y103.994 E70.58972
G1 X123.348 Y103.53 E70.61146
G1 X122.992 Y102.962 E70.63375
